; generated by Slic3r 0.9.10b on 2014-12-22 at 03:18:53

; layer_height = 0.2937
; perimeters = 3
; top_solid_layers = 3
; bottom_solid_layers = 3
; fill_density = .3
; perimeter_speed = 30
; infill_speed = 60
; travel_speed = 130
; nozzle_diameter = .4
; filament_diameter = 1.73
; extrusion_multiplier = 1
; perimeters extrusion width = 0.44mm
; infill extrusion width = 0.44mm
; solid infill extrusion width = 0.44mm
; top infill extrusion width = 0.44mm
; first layer extrusion width = 0.87mm

G21 ; set units to millimeters
M107
G21 ;SET TO MM
G91 ;SET TO REL
G1 Z5;GO UP 10
G28 X0 YO
G90 ;SET TO ABSOLUTE
G1 X100 Y100 F1100 ;GO TO CENTER
G28 Z0
G1 Z5
G90 ; use absolute coordinates
G92 E0
M82 ; use absolute distances for extrusion
G1 F1800.000 E-0.10000
G1 Z0.691 F7800.000
G92 E0
G1 X66.911 Y66.671
G1 Z0.397
G1 F1800.000 E0.10000
G1 X68.541 Y65.121 F540.000 E0.39928
G1 X70.801 Y63.191 E0.79471
G1 X72.591 Y61.821 E1.09463
G1 X75.031 Y60.141 E1.48879
G1 X76.941 Y58.971 E1.78681
G1 X79.221 Y57.721 E2.13278
G1 X81.601 Y56.581 E2.48390
G1 X84.001 Y55.581 E2.82984
G1 X86.781 Y54.591 E3.22248
G1 X89.271 Y53.861 E3.56773
G1 X91.821 Y53.251 E3.91659
G1 X94.041 Y52.841 E4.21697
G1 X96.981 Y52.461 E4.61140
G1 X99.691 Y52.261 E4.97296
G1 X102.141 Y52.211 E5.29901
G1 X104.401 Y52.261 E5.59978
G1 X107.031 Y52.461 E5.95072
G1 X109.951 Y52.841 E6.34252
G1 X112.171 Y53.251 E6.64289
G1 X114.721 Y53.861 E6.99175
G1 X117.211 Y54.591 E7.33700
G1 X120.011 Y55.581 E7.73215
G1 X122.081 Y56.441 E8.03040
G1 X124.781 Y57.731 E8.42854
G1 X127.021 Y58.961 E8.76856
G1 X129.261 Y60.341 E9.11862
G1 X131.401 Y61.821 E9.46482
G1 X133.191 Y63.191 E9.76473
G1 X135.451 Y65.121 E10.16016
G1 X137.321 Y66.911 E10.50459
G1 X138.871 Y68.541 E10.80387
G1 X140.801 Y70.801 E11.19930
G1 X142.171 Y72.591 E11.49922
G1 X143.851 Y75.031 E11.89338
G1 X145.021 Y76.941 E12.19140
G1 X146.271 Y79.221 E12.53737
G1 X147.411 Y81.601 E12.88849
G1 X148.411 Y84.001 E13.23443
G1 X149.401 Y86.781 E13.62707
G1 X150.041 Y88.941 E13.92682
G1 X150.721 Y91.791 E14.31667
G1 X151.141 Y94.011 E14.61729
G1 X151.531 Y96.961 E15.01321
G1 X151.711 Y99.201 E15.31221
G1 X151.781 Y102.141 E15.70350
G1 X151.731 Y104.401 E16.00428
G1 X151.531 Y107.031 E16.35522
G1 X151.201 Y109.601 E16.69998
G1 X150.721 Y112.201 E17.05176
G1 X150.041 Y115.051 E17.44161
G1 X149.401 Y117.211 E17.74136
G1 X148.411 Y120.011 E18.13651
G1 X147.551 Y122.081 E18.43476
G1 X146.261 Y124.781 E18.83290
G1 X145.031 Y127.021 E19.17292
G1 X143.651 Y129.261 E19.52298
G1 X142.171 Y131.401 E19.86917
G1 X140.801 Y133.191 E20.16909
G1 X138.871 Y135.451 E20.56452
G1 X137.081 Y137.321 E20.90895
G1 X135.451 Y138.871 E21.20823
G1 X133.191 Y140.801 E21.60366
G1 X131.401 Y142.171 E21.90357
G1 X128.941 Y143.861 E22.30068
G1 X127.021 Y145.031 E22.59984
G1 X124.431 Y146.441 E22.99221
G1 X122.081 Y147.551 E23.33801
G1 X120.011 Y148.411 E23.63626
G1 X117.211 Y149.401 E24.03141
G1 X115.051 Y150.041 E24.33116
G1 X112.201 Y150.721 E24.72100
G1 X109.981 Y151.141 E25.02162
G1 X107.031 Y151.531 E25.41755
G1 X104.791 Y151.711 E25.71655
G1 X101.841 Y151.781 E26.10917
G1 X99.591 Y151.731 E26.40861
G1 X96.961 Y151.531 E26.75956
G1 X94.391 Y151.201 E27.10431
G1 X91.791 Y150.721 E27.45610
G1 X88.941 Y150.041 E27.84595
G1 X86.781 Y149.401 E28.14569
G1 X84.331 Y148.541 E28.49118
G1 X81.921 Y147.551 E28.83784
G1 X79.221 Y146.271 E29.23541
G1 X76.941 Y145.021 E29.58137
G1 X74.731 Y143.651 E29.92734
G1 X72.591 Y142.171 E30.27353
G1 X70.801 Y140.801 E30.57345
G1 X68.541 Y138.871 E30.96888
G1 X66.671 Y137.081 E31.31331
G1 X65.121 Y135.451 E31.61259
G1 X63.191 Y133.191 E32.00802
G1 X61.821 Y131.401 E32.30793
G1 X60.131 Y128.941 E32.70504
G1 X58.961 Y127.021 E33.00420
G1 X57.551 Y124.431 E33.39657
G1 X56.441 Y122.081 E33.74237
G1 X55.581 Y120.011 E34.04062
G1 X54.591 Y117.211 E34.43577
G1 X53.861 Y114.721 E34.78102
G1 X53.251 Y112.171 E35.12988
G1 X52.841 Y109.951 E35.43025
G1 X52.461 Y107.031 E35.82205
G1 X52.261 Y104.401 E36.17299
G1 X52.211 Y101.841 E36.51367
G1 X52.261 Y99.591 E36.81312
G1 X52.461 Y96.961 E37.16406
G1 X52.841 Y94.041 E37.55585
G1 X53.251 Y91.821 E37.85623
G1 X53.861 Y89.271 E38.20509
G1 X54.591 Y86.781 E38.55034
G1 X55.451 Y84.331 E38.89582
G1 X56.441 Y81.921 E39.24248
G1 X57.721 Y79.221 E39.64005
G1 X58.971 Y76.941 E39.98601
G1 X60.341 Y74.731 E40.33198
G1 X61.821 Y72.591 E40.67818
G1 X63.191 Y70.801 E40.97809
G1 X65.121 Y68.541 E41.37352
G1 X66.827 Y66.755 E41.70223
G1 F1800.000 E41.60223
G1 Z0.691 F7800.000
G92 E0
G1 X70.216 Y70.188
G1 Z0.397
G1 F1800.000 E0.10000
G1 X71.924 Y68.567 F540.000 E0.41322
G1 X73.683 Y67.065 E0.72104
G1 X75.550 Y65.631 E1.03425
G1 X77.482 Y64.302 E1.34622
G1 X79.541 Y63.039 E1.66764
G1 X81.603 Y61.922 E1.97960
G1 X83.739 Y60.904 E2.29443
G1 X85.903 Y60.011 E2.60599
G1 X88.124 Y59.223 E2.91951
G1 X90.381 Y58.557 E3.23262
G1 X92.670 Y58.008 E3.54578
G1 X94.986 Y57.580 E3.85925
G1 X97.281 Y57.280 E4.16713
G1 X99.740 Y57.090 E4.49529
G1 X102.019 Y57.031 E4.79868
G1 X104.333 Y57.091 E5.10666
G1 X106.681 Y57.276 E5.41998
G1 X109.014 Y57.580 E5.73300
G1 X111.330 Y58.008 E6.04647
G1 X113.619 Y58.557 E6.35961
G1 X115.878 Y59.223 E6.67295
G1 X118.099 Y60.011 E6.98653
G1 X120.261 Y60.905 E7.29787
G1 X122.445 Y61.946 E7.61981
G1 X124.502 Y63.065 E7.93131
G1 X126.518 Y64.302 E8.24600
G1 X128.450 Y65.631 E8.55800
G1 X130.317 Y67.065 E8.87121
G1 X132.107 Y68.595 E9.18457
G1 X133.812 Y70.216 E9.49765
G1 X135.433 Y71.924 E9.81087
G1 X136.961 Y73.715 E10.12419
G1 X138.393 Y75.584 E10.43736
G1 X139.726 Y77.525 E10.75072
G1 X140.956 Y79.532 E11.06391
G1 X142.059 Y81.567 E11.37191
G1 X143.073 Y83.691 E11.68507
G1 X143.971 Y85.856 E11.99687
G1 X144.762 Y88.084 E12.31149
G1 X145.433 Y90.341 E12.62476
G1 X145.982 Y92.630 E12.93790
G1 X146.412 Y94.933 E13.24969
G1 X146.727 Y97.330 E13.57139
G1 X146.909 Y99.667 E13.88327
G1 X146.969 Y101.979 E14.19092
G1 X146.909 Y104.333 E14.50424
G1 X146.727 Y106.670 E14.81613
G1 X146.412 Y109.067 E15.13783
G1 X145.982 Y111.370 E15.44962
G1 X145.433 Y113.659 E15.76271
G1 X144.762 Y115.918 E16.07626
G1 X143.971 Y118.147 E16.39097
G1 X143.073 Y120.308 E16.70242
G1 X142.059 Y122.436 E17.01599
G1 X140.935 Y124.502 E17.32893
G1 X139.704 Y126.509 E17.64224
G1 X138.369 Y128.450 E17.95562
G1 X136.935 Y130.317 E18.26883
G1 X135.405 Y132.107 E18.58220
G1 X133.812 Y133.784 E18.88987
G1 X132.107 Y135.405 E19.20296
G1 X130.317 Y136.935 E19.51632
G1 X128.450 Y138.369 E19.82953
G1 X126.509 Y139.704 E20.14291
G1 X124.502 Y140.935 E20.45622
G1 X122.436 Y142.059 E20.76916
G1 X120.308 Y143.073 E21.08273
G1 X118.147 Y143.971 E21.39418
G1 X115.918 Y144.762 E21.70889
G1 X113.659 Y145.433 E22.02244
G1 X111.370 Y145.982 E22.33553
G1 X109.067 Y146.412 E22.64732
G1 X106.670 Y146.727 E22.96902
G1 X104.333 Y146.909 E23.28091
G1 X102.019 Y146.969 E23.58883
G1 X99.667 Y146.909 E23.90188
G1 X97.330 Y146.727 E24.21376
G1 X94.933 Y146.412 E24.53546
G1 X92.630 Y145.982 E24.84725
G1 X90.341 Y145.433 E25.16039
G1 X88.084 Y144.762 E25.47366
G1 X85.856 Y143.971 E25.78828
G1 X83.691 Y143.073 E26.10008
G1 X81.567 Y142.059 E26.41324
G1 X79.532 Y140.956 E26.72124
G1 X77.525 Y139.726 E27.03443
G1 X75.584 Y138.393 E27.34779
G1 X73.715 Y136.961 E27.66096
G1 X71.924 Y135.433 E27.97428
G1 X70.216 Y133.812 E28.28750
G1 X68.595 Y132.107 E28.60058
G1 X67.065 Y130.317 E28.91394
G1 X65.631 Y128.450 E29.22715
G1 X64.302 Y126.518 E29.53915
G1 X63.065 Y124.502 E29.85384
G1 X61.946 Y122.445 E30.16534
G1 X60.905 Y120.261 E30.48728
G1 X60.011 Y118.099 E30.79862
G1 X59.223 Y115.878 E31.11220
G1 X58.557 Y113.619 E31.42555
G1 X58.008 Y111.330 E31.73868
G1 X57.580 Y109.014 E32.05215
G1 X57.276 Y106.681 E32.36517
G1 X57.091 Y104.333 E32.67849
G1 X57.031 Y102.019 E32.98647
G1 X57.091 Y99.667 E33.29959
G1 X57.276 Y97.319 E33.61290
G1 X57.580 Y94.986 E33.92592
G1 X58.006 Y92.680 E34.23801
G1 X58.557 Y90.381 E34.55255
G1 X59.220 Y88.134 E34.86425
G1 X60.029 Y85.857 E35.18581
G1 X60.926 Y83.691 E35.49772
G1 X61.941 Y81.567 E35.81098
G1 X63.065 Y79.496 E36.12447
G1 X64.274 Y77.525 E36.43210
G1 X65.607 Y75.584 E36.74546
G1 X67.039 Y73.715 E37.05863
G1 X68.567 Y71.924 E37.37195
G1 X70.134 Y70.273 E37.67485
G1 X70.745 Y70.774 F7800.000
G1 X72.428 Y69.174 F540.000 E37.98384
G1 X74.187 Y67.671 E38.29167
G1 X76.022 Y66.263 E38.59940
G1 X77.920 Y64.957 E38.90590
G1 X79.926 Y63.727 E39.21905
G1 X81.951 Y62.629 E39.52556
G1 X84.050 Y61.629 E39.83484
G1 X86.176 Y60.750 E40.14102
G1 X88.358 Y59.976 E40.44897
G1 X90.575 Y59.321 E40.75661
G1 X92.823 Y58.781 E41.06427
G1 X95.099 Y58.360 E41.37218
G1 X97.373 Y58.062 E41.67727
G1 X99.790 Y57.876 E41.99990
G1 X101.989 Y57.819 E42.29254
G1 X104.302 Y57.878 E42.60047
G1 X106.608 Y58.060 E42.90825
G1 X108.901 Y58.360 E43.21588
G1 X111.177 Y58.781 E43.52380
G1 X113.425 Y59.321 E43.83144
G1 X115.644 Y59.976 E44.13933
G1 X117.826 Y60.750 E44.44732
G1 X119.951 Y61.629 E44.75327
G1 X122.078 Y62.644 E45.06692
G1 X124.099 Y63.743 E45.37296
G1 X126.080 Y64.957 E45.68216
G1 X127.978 Y66.263 E45.98867
G1 X129.813 Y67.671 E46.29640
G1 X131.556 Y69.160 E46.60146
G1 X133.234 Y70.752 E46.90917
G1 X134.826 Y72.428 E47.21682
G1 X136.329 Y74.187 E47.52465
G1 X137.737 Y76.022 E47.83238
G1 X139.043 Y77.920 E48.13888
G1 X140.273 Y79.926 E48.45202
G1 X141.371 Y81.952 E48.75862
G1 X142.369 Y84.049 E49.06762
G1 X143.250 Y86.177 E49.37403
G1 X144.022 Y88.357 E49.68180
G1 X144.679 Y90.575 E49.98961
G1 X145.217 Y92.823 E50.29711
G1 X145.637 Y95.077 E50.60221
G1 X145.939 Y97.371 E50.91007
G1 X146.121 Y99.677 E51.21783
G1 X146.181 Y101.989 E51.52551
G1 X146.122 Y104.302 E51.83340
G1 X145.943 Y106.598 E52.13978
G1 X145.635 Y108.933 E52.45317
G1 X145.213 Y111.197 E52.75955
G1 X144.674 Y113.445 E53.06714
G1 X144.016 Y115.664 E53.37517
G1 X143.239 Y117.854 E53.68437
G1 X142.357 Y119.979 E53.99042
G1 X141.361 Y122.069 E54.29843
G1 X140.257 Y124.099 E54.60591
G1 X139.049 Y126.071 E54.91372
G1 X137.737 Y127.978 E55.22162
G1 X136.329 Y129.813 E55.52934
G1 X134.840 Y131.556 E55.83441
G1 X133.248 Y133.234 E56.14212
G1 X131.572 Y134.826 E56.44977
G1 X129.813 Y136.329 E56.75760
G1 X127.978 Y137.737 E57.06532
G1 X126.071 Y139.049 E57.37322
G1 X124.099 Y140.257 E57.68104
G1 X122.069 Y141.361 E57.98851
G1 X119.979 Y142.357 E58.29652
G1 X117.854 Y143.239 E58.60258
G1 X115.664 Y144.016 E58.91177
G1 X113.445 Y144.674 E59.21980
G1 X111.197 Y145.213 E59.52739
G1 X108.933 Y145.635 E59.83377
G1 X106.598 Y145.943 E60.14717
G1 X104.302 Y146.122 E60.45354
G1 X102.009 Y146.181 E60.75873
G1 X99.698 Y146.122 E61.06636
G1 X97.402 Y145.943 E61.37273
G1 X95.067 Y145.635 E61.68613
G1 X92.803 Y145.213 E61.99251
G1 X90.555 Y144.674 E62.30012
G1 X88.338 Y144.016 E62.60788
G1 X86.148 Y143.239 E62.91702
G1 X84.021 Y142.357 E63.22339
G1 X81.934 Y141.362 E63.53107
G1 X79.917 Y140.268 E63.83631
G1 X77.946 Y139.060 E64.14395
G1 X76.039 Y137.749 E64.45184
G1 X74.203 Y136.342 E64.75954
G1 X72.444 Y134.840 E65.06736
G1 X70.766 Y133.248 E65.37507
G1 X69.174 Y131.572 E65.68271
G1 X67.671 Y129.813 E65.99055
G1 X66.263 Y127.978 E66.29827
G1 X64.957 Y126.080 E66.60479
G1 X63.743 Y124.099 E66.91398
G1 X62.644 Y122.078 E67.22003
G1 X61.629 Y119.951 E67.53368
G1 X60.750 Y117.826 E67.83963
G1 X59.976 Y115.644 E68.14762
G1 X59.321 Y113.425 E68.45551
G1 X58.781 Y111.177 E68.76315
G1 X58.360 Y108.901 E69.07106
G1 X58.060 Y106.608 E69.37869
G1 X57.879 Y104.323 E69.68367
G1 X57.819 Y102.009 E69.99171
G1 X57.878 Y99.698 E70.29938
G1 X58.060 Y97.392 E70.60715
G1 X58.360 Y95.099 E70.91478
G1 X58.779 Y92.834 E71.22131
G1 X59.321 Y90.575 E71.53035
G1 X59.973 Y88.368 E71.83658
G1 X60.761 Y86.149 E72.14992
G1 X61.641 Y84.021 E72.45631
G1 X62.638 Y81.933 E72.76411
G1 X63.732 Y79.917 E73.06931
G1 X64.940 Y77.946 E73.37695
G1 X66.251 Y76.039 E73.68484
G1 X67.658 Y74.203 E73.99254
G1 X69.160 Y72.444 E74.30035
G1 X70.664 Y70.859 E74.59099
G1 X71.309 Y71.324 F7800.000
G1 X72.956 Y69.759 F540.000 E74.89316
G1 X74.683 Y68.283 E75.19548
G1 X76.485 Y66.900 E75.49772
G1 X78.358 Y65.612 E75.80013
G1 X80.311 Y64.415 E76.10499
G1 X82.309 Y63.331 E76.40740
G1 X84.360 Y62.353 E76.70979
G1 X86.459 Y61.486 E77.01192
G1 X88.601 Y60.725 E77.31438
G1 X90.779 Y60.082 E77.61650
G1 X92.987 Y59.552 E77.91868
G1 X95.222 Y59.138 E78.22105
G1 X97.454 Y58.846 E78.52055
G1 X99.831 Y58.663 E78.83771
G1 X101.989 Y58.607 E79.12498
G1 X104.261 Y58.665 E79.42742
G1 X106.526 Y58.844 E79.72973
G1 X108.778 Y59.138 E80.03190
G1 X111.013 Y59.552 E80.33427
G1 X113.221 Y60.082 E80.63646
G1 X115.401 Y60.725 E80.93881
G1 X117.543 Y61.486 E81.24129
G1 X119.640 Y62.353 E81.54319
G1 X121.711 Y63.341 E81.84855
G1 X123.705 Y64.425 E82.15050
G1 X125.642 Y65.612 E82.45283
G1 X127.515 Y66.900 E82.75524
G1 X129.317 Y68.283 E83.05748
G1 X131.044 Y69.759 E83.35980
G1 X132.676 Y71.309 E83.65927
G1 X134.241 Y72.956 E83.96144
G1 X135.717 Y74.683 E84.26376
G1 X137.100 Y76.485 E84.56600
G1 X138.388 Y78.358 E84.86841
G1 X139.585 Y80.311 E85.17327
G1 X140.669 Y82.310 E85.47573
G1 X141.645 Y84.360 E85.77791
G1 X142.514 Y86.459 E86.08023
G1 X143.273 Y88.601 E86.38251
G1 X143.918 Y90.779 E86.68480
G1 X144.446 Y92.987 E86.98683
G1 X144.858 Y95.201 E87.28647
G1 X145.156 Y97.454 E87.58878
G1 X145.334 Y99.718 E87.89104
G1 X145.393 Y101.989 E88.19326
G1 X145.335 Y104.261 E88.49569
G1 X145.158 Y106.526 E88.79794
G1 X144.858 Y108.799 E89.10302
G1 X144.442 Y111.033 E89.40533
G1 X143.913 Y113.241 E89.70746
G1 X143.266 Y115.421 E90.00996
G1 X142.507 Y117.562 E90.31227
G1 X141.637 Y119.658 E90.61427
G1 X140.659 Y121.711 E90.91680
G1 X139.575 Y123.705 E91.21875
G1 X138.388 Y125.642 E91.52108
G1 X137.100 Y127.515 E91.82349
G1 X135.717 Y129.317 E92.12573
G1 X134.241 Y131.044 E92.42805
G1 X132.691 Y132.676 E92.72752
G1 X131.044 Y134.241 E93.02969
G1 X129.317 Y135.717 E93.33201
G1 X127.515 Y137.100 E93.63425
G1 X125.642 Y138.388 E93.93666
G1 X123.705 Y139.575 E94.23900
G1 X121.711 Y140.659 E94.54094
G1 X119.658 Y141.637 E94.84347
G1 X117.562 Y142.507 E95.14548
G1 X115.421 Y143.266 E95.44778
G1 X113.241 Y143.913 E95.75028
G1 X111.033 Y144.442 E96.05241
G1 X108.799 Y144.858 E96.35472
G1 X106.526 Y145.158 E96.65981
G1 X104.261 Y145.335 E96.96205
G1 X102.009 Y145.393 E97.26178
G1 X99.739 Y145.335 E97.56395
G1 X97.474 Y145.158 E97.86619
G1 X95.201 Y144.858 E98.17128
G1 X92.967 Y144.442 E98.47359
G1 X90.759 Y143.913 E98.77574
G1 X88.581 Y143.266 E99.07797
G1 X86.440 Y142.507 E99.38025
G1 X84.342 Y141.637 E99.68254
G1 X82.291 Y140.659 E99.98476
G1 X80.293 Y139.575 E100.28725
G1 X78.375 Y138.399 E100.58659
G1 X76.502 Y137.112 E100.88901
G1 X74.699 Y135.730 E101.19123
G1 X72.971 Y134.255 E101.49353
G1 X71.324 Y132.691 E101.79577
G1 X69.759 Y131.044 E102.09794
G1 X68.283 Y129.317 E102.40026
G1 X66.900 Y127.515 E102.70250
G1 X65.612 Y125.642 E103.00491
G1 X64.425 Y123.705 E103.30725
G1 X63.341 Y121.711 E103.60919
G1 X62.353 Y119.640 E103.91455
G1 X61.486 Y117.543 E104.21645
G1 X60.725 Y115.401 E104.51893
G1 X60.082 Y113.221 E104.82129
G1 X59.552 Y111.013 E105.12347
G1 X59.138 Y108.778 E105.42584
G1 X58.844 Y106.526 E105.72801
G1 X58.666 Y104.282 E106.02752
G1 X58.607 Y102.009 E106.33006
G1 X58.665 Y99.739 E106.63223
G1 X58.844 Y97.474 E106.93454
G1 X59.138 Y95.222 E107.23671
G1 X59.552 Y92.987 E107.53908
G1 X60.082 Y90.779 E107.84127
G1 X60.725 Y88.601 E108.14338
G1 X61.493 Y86.440 E108.44850
G1 X62.353 Y84.360 E108.74797
G1 X63.331 Y82.309 E109.05036
G1 X64.415 Y80.311 E109.35277
G1 X65.601 Y78.375 E109.65490
G1 X66.888 Y76.502 E109.95731
G1 X68.270 Y74.699 E110.25954
G1 X69.745 Y72.971 E110.56183
G1 X71.228 Y71.409 E110.84834
G1 X71.804 Y71.947 F7800.000
G1 X73.491 Y70.338 F378.000 E111.15858
G1 X75.187 Y68.889 E111.45536
G1 X76.957 Y67.532 E111.75212
G1 X78.796 Y66.268 E112.04906
G1 X80.696 Y65.102 E112.34565
G1 X82.658 Y64.038 E112.64261
G1 X84.671 Y63.077 E112.93945
G1 X86.732 Y62.225 E113.23620
G1 X88.835 Y61.478 E113.53309
G1 X90.973 Y60.846 E113.82974
G1 X93.141 Y60.325 E114.12642
G1 X95.334 Y59.918 E114.42324
G1 X97.546 Y59.629 E114.72002
G1 X99.770 Y59.453 E115.01680
G1 X101.999 Y59.395 E115.31352
G1 X104.230 Y59.453 E115.61050
G1 X106.454 Y59.629 E115.90728
