; generated by Slic3r 0.9.10b on 2015-03-20 at 17:12:17

; layer_height = 0.2937
; perimeters = 3
; top_solid_layers = 3
; bottom_solid_layers = 3
; fill_density = .3
; perimeter_speed = 30
; infill_speed = 60
; travel_speed = 130
; nozzle_diameter = .4
; filament_diameter = 1.73
; extrusion_multiplier = 1
; perimeters extrusion width = 0.44mm
; infill extrusion width = 0.44mm
; solid infill extrusion width = 0.44mm
; top infill extrusion width = 0.44mm
; first layer extrusion width = 0.87mm

G21 ; set units to millimeters
M107
G21 ;SET TO MM
G91 ;SET TO REL
G1 Z5;GO UP 10
G28 X0 YO
G90 ;SET TO ABSOLUTE
G1 X100 Y100 F1100 ;GO TO CENTER
G28 Z0
G1 Z5
G90 ; use absolute coordinates
G92 E0
M82 ; use absolute distances for extrusion
G1 F1800.000 E-0.10000
G1 Z0.691 F7800.000
G92 E0
G1 X90.743 Y92.146
G1 Z0.397
G1 F1800.000 E0.10000
G1 X91.853 Y91.346 F540.000 E0.28205
G1 X97.853 Y87.886 E1.20360
G1 X99.483 Y87.206 E1.43860
G1 X101.243 Y86.976 E1.67476
G1 X102.743 Y86.976 E1.87434
G1 X104.493 Y87.206 E2.10919
G1 X106.133 Y87.886 E2.34541
G1 X112.143 Y91.346 E3.26812
G1 X113.553 Y92.426 E3.50443
G1 X114.633 Y93.836 E3.74075
G1 X115.383 Y95.136 E3.94044
G1 X116.063 Y96.766 E4.17543
G1 X116.293 Y98.526 E4.41160
G1 X116.293 Y105.466 E5.33499
G1 X116.063 Y107.226 E5.57116
G1 X115.383 Y108.856 E5.80615
G1 X114.633 Y110.156 E6.00585
G1 X113.553 Y111.566 E6.24216
G1 X112.143 Y112.646 E6.47848
G1 X106.133 Y116.106 E7.40118
G1 X104.493 Y116.786 E7.63741
G1 X102.743 Y117.016 E7.87225
G1 X101.243 Y117.016 E8.07183
G1 X99.483 Y116.786 E8.30800
G1 X97.853 Y116.106 E8.54299
G1 X91.853 Y112.646 E9.46454
G1 X90.443 Y111.566 E9.70086
G1 X89.363 Y110.156 E9.93718
G1 X88.613 Y108.856 E10.13687
G1 X87.933 Y107.226 E10.37186
G1 X87.703 Y105.466 E10.60803
G1 X87.703 Y98.526 E11.53142
G1 X87.933 Y96.786 E11.76495
G1 X88.603 Y95.156 E11.99943
G1 X89.323 Y93.896 E12.19252
G1 X89.783 Y93.196 E12.30397
G1 X90.663 Y92.233 E12.47754
G1 F1800.000 E12.37754
G1 Z0.691 F7800.000
G92 E0
G1 X93.837 Y95.729
G1 Z0.397
G1 F1800.000 E0.10000
G1 X94.063 Y95.546 F540.000 E0.13875
G1 X95.200 Y95.174 E0.29786
G1 X95.491 Y95.188 E0.33661
G1 X98.804 Y96.647 E0.81830
G1 X98.937 Y96.569 E0.83875
G1 X99.361 Y92.946 E1.32414
G1 X99.495 Y92.689 E1.36268
G1 X100.384 Y91.899 E1.52088
G1 X100.654 Y91.796 E1.55943
G1 X103.349 Y91.796 E1.91797
G1 X103.621 Y91.900 E1.95672
G1 X104.511 Y92.698 E2.11583
G1 X104.644 Y92.957 E2.15458
G1 X105.038 Y96.556 E2.63628
G1 X105.172 Y96.632 E2.65673
G1 X108.522 Y95.188 E3.14211
G1 X108.811 Y95.175 E3.18065
G1 X109.940 Y95.549 E3.33886
G1 X110.164 Y95.732 E3.37740
G1 X111.512 Y98.066 E3.73594
G1 X111.558 Y98.354 E3.77469
G1 X111.312 Y99.524 E3.93380
G1 X111.154 Y99.769 E3.97255
G1 X108.437 Y101.760 E4.42069
G1 X108.365 Y101.936 E4.44598
G1 X108.508 Y102.266 E4.49390
G1 X111.160 Y104.242 E4.93391
G1 X111.316 Y104.486 E4.97245
G1 X111.556 Y105.651 E5.13065
G1 X111.510 Y105.937 E5.16919
G1 X110.163 Y108.271 E5.52774
G1 X109.937 Y108.454 E5.56649
G1 X108.800 Y108.826 E5.72560
G1 X108.509 Y108.812 E5.76435
G1 X105.196 Y107.353 E6.24604
G1 X105.063 Y107.431 E6.26650
G1 X104.639 Y111.054 E6.75188
G1 X104.505 Y111.311 E6.79042
G1 X103.616 Y112.101 E6.94863
G1 X103.346 Y112.204 E6.98717
G1 X100.651 Y112.204 E7.34571
G1 X100.379 Y112.100 E7.38446
G1 X99.489 Y111.302 E7.54357
G1 X99.356 Y111.043 E7.58232
G1 X98.962 Y107.444 E8.06402
G1 X98.828 Y107.368 E8.08447
G1 X95.478 Y108.812 E8.56985
G1 X95.189 Y108.825 E8.60839
G1 X94.060 Y108.451 E8.76660
G1 X93.836 Y108.268 E8.80514
G1 X92.488 Y105.934 E9.16368
G1 X92.442 Y105.646 E9.20243
G1 X92.688 Y104.476 E9.36154
G1 X92.846 Y104.231 E9.40029
G1 X95.383 Y102.372 E9.81875
G1 X95.366 Y102.280 E9.83118
G1 X95.434 Y101.974 E9.87289
G1 X95.564 Y101.787 E9.90315
G1 X92.840 Y99.758 E10.35510
G1 X92.684 Y99.514 E10.39364
G1 X92.444 Y98.349 E10.55185
G1 X92.490 Y98.063 E10.59039
G1 X93.778 Y95.832 E10.93321
G1 X94.369 Y96.385 F7800.000
G1 X94.595 Y96.201 F540.000 E10.97196
G1 X95.158 Y96.017 E11.05083
G1 X95.449 Y96.031 E11.08958
G1 X98.856 Y97.530 E11.58478
G1 X99.674 Y97.050 E11.71101
G1 X100.109 Y93.335 E12.20867
G1 X100.243 Y93.078 E12.24721
G1 X100.683 Y92.687 E12.32564
G1 X100.954 Y92.584 E12.36418
G1 X103.048 Y92.584 E12.64271
G1 X103.320 Y92.688 E12.68146
G1 X103.761 Y93.083 E12.76033
G1 X103.894 Y93.342 E12.79908
G1 X104.299 Y97.042 E13.29429
G1 X105.124 Y97.511 E13.42052
G1 X108.558 Y96.030 E13.91817
G1 X108.848 Y96.018 E13.95671
G1 X109.407 Y96.203 E14.03514
G1 X109.632 Y96.386 E14.07368
G1 X110.679 Y98.199 E14.35222
G1 X110.724 Y98.487 E14.39097
G1 X110.602 Y99.067 E14.46984
G1 X110.445 Y99.311 E14.50859
G1 X107.755 Y101.283 E14.95224
G1 X107.756 Y101.344 E14.96045
G1 X107.511 Y101.945 E15.04674
G1 X107.763 Y102.529 E15.13141
G1 X107.766 Y102.696 E15.15365
G1 X110.449 Y104.695 E15.59884
G1 X110.605 Y104.939 E15.63738
G1 X110.724 Y105.516 E15.71581
G1 X110.678 Y105.802 E15.75435
G1 X109.631 Y107.615 E16.03289
G1 X109.405 Y107.799 E16.07164
G1 X108.842 Y107.983 E16.15051
G1 X108.551 Y107.969 E16.18926
G1 X105.144 Y106.470 E16.68446
G1 X104.326 Y106.950 E16.81069
G1 X103.891 Y110.665 E17.30835
G1 X103.757 Y110.922 E17.34689
G1 X103.317 Y111.313 E17.42532
G1 X103.046 Y111.416 E17.46386
G1 X100.952 Y111.416 E17.74239
G1 X100.680 Y111.312 E17.78114
G1 X100.239 Y110.917 E17.86001
G1 X100.106 Y110.658 E17.89876
G1 X99.701 Y106.958 E18.39396
G1 X98.876 Y106.489 E18.52020
G1 X95.442 Y107.970 E19.01785
G1 X95.152 Y107.982 E19.05639
G1 X94.593 Y107.797 E19.13482
G1 X94.368 Y107.614 E19.17336
G1 X93.321 Y105.801 E19.45190
G1 X93.276 Y105.513 E19.49065
G1 X93.398 Y104.933 E19.56952
G1 X93.555 Y104.689 E19.60827
G1 X96.245 Y102.717 E20.05199
G1 X96.200 Y102.463 E20.08637
G1 X96.267 Y102.156 E20.12808
G1 X96.401 Y101.963 E20.15941
G1 X96.398 Y101.728 E20.19074
G1 X96.416 Y101.683 E20.19712
G1 X96.344 Y101.386 E20.23781
G1 X93.551 Y99.305 E20.70124
G1 X93.395 Y99.061 E20.73978
G1 X93.276 Y98.484 E20.81821
G1 X93.322 Y98.198 E20.85676
G1 X94.310 Y96.487 E21.11956
G1 X94.877 Y97.080 F7800.000
G1 X95.450 Y96.893 F540.000 E21.19981
G1 X98.907 Y98.414 E21.70232
G1 X100.411 Y97.531 E21.93433
G1 X100.852 Y93.770 E22.43818
G1 X101.300 Y93.372 E22.51796
G1 X102.699 Y93.372 E22.70421
G1 X103.148 Y93.774 E22.78445
G1 X103.559 Y97.529 E23.28696
G1 X105.076 Y98.389 E23.51898
G1 X108.553 Y96.891 E24.02282
G1 X109.122 Y97.079 E24.10260
G1 X109.822 Y98.292 E24.28885
G1 X109.698 Y98.882 E24.36909
G1 X106.760 Y101.035 E24.85370
G1 X106.761 Y101.124 E24.86556
G1 X106.880 Y101.405 E24.90618
G1 X106.767 Y101.681 E24.94579
G1 X106.770 Y101.905 E24.97553
G1 X106.670 Y101.947 E24.98989
G1 X106.769 Y101.988 E25.00411
G1 X106.772 Y102.222 E25.03523
G1 X106.886 Y102.486 E25.07356
G1 X106.778 Y102.761 E25.11287
G1 X106.779 Y102.944 E25.13721
G1 X109.701 Y105.120 E25.62202
G1 X109.823 Y105.708 E25.70179
G1 X109.123 Y106.920 E25.88805
G1 X108.550 Y107.107 E25.96829
G1 X105.093 Y105.586 E26.47080
G1 X103.589 Y106.469 E26.70282
G1 X103.148 Y110.230 E27.20666
G1 X102.700 Y110.628 E27.28644
G1 X101.301 Y110.628 E27.47269
G1 X100.852 Y110.226 E27.55293
G1 X100.441 Y106.471 E28.05544
G1 X98.924 Y105.611 E28.28746
G1 X95.447 Y107.109 E28.79131
G1 X94.878 Y106.921 E28.87108
G1 X94.178 Y105.708 E29.05733
G1 X94.302 Y105.118 E29.13757
G1 X97.318 Y102.908 E29.63513
G1 X97.200 Y102.685 E29.66866
G1 X97.192 Y102.147 E29.74029
G1 X97.309 Y102.027 E29.76255
G1 X97.132 Y101.291 E29.86327
G1 X97.258 Y101.084 E29.89553
G1 X94.299 Y98.880 E30.38658
G1 X94.177 Y98.292 E30.46636
G1 X94.818 Y97.182 E30.63689
G1 X95.409 Y97.735 F7800.000
G1 X98.959 Y99.298 F378.000 E31.15290
G1 X101.148 Y98.012 E31.49071
G1 X101.599 Y94.160 E32.00682
G1 X102.398 Y94.160 E32.11306
G1 X102.820 Y98.015 E32.62908
G1 X105.027 Y99.268 E32.96688
G1 X108.590 Y97.733 E33.48300
G1 X108.989 Y98.424 E33.58924
G1 X105.861 Y100.717 E34.10526
G1 X105.880 Y103.256 E34.44306
G1 X108.990 Y105.573 E34.95918
G1 X108.591 Y106.265 E35.06542
G1 X105.041 Y104.702 E35.58144
G1 X102.852 Y105.988 E35.91924
G1 X102.401 Y109.840 E36.43535
G1 X101.602 Y109.840 E36.54160
G1 X101.180 Y105.985 E37.05761
G1 X98.973 Y104.732 E37.39542
G1 X95.410 Y106.267 E37.91153
G1 X95.011 Y105.576 E38.01778
G1 X98.139 Y103.283 E38.53379
G1 X98.120 Y100.744 E38.87159
G1 X95.010 Y98.427 E39.38771
G1 X95.350 Y97.838 E39.47823
G1 X95.851 Y98.387 F7800.000
G1 F1800.000 E39.37823
G1 Z0.691 F7800.000
G92 E0
G1 X99.040 Y100.104
G1 Z0.397
G1 F1800.000 E0.10000
G1 X105.023 Y100.104 F540.000 E0.89612
G1 X105.023 Y103.896 E1.40073
G1 X99.040 Y103.896 E2.19685
G1 X99.040 Y100.222 E2.68574
G1 X99.722 Y100.498 F7800.000
G1 F1800.000 E2.58574
G1 Z0.691 F7800.000
G92 E0
G1 X98.206 Y102.204
G1 Z0.397
G1 F1800.000 E0.10000
G1 X98.026 Y101.455 F540.000 E0.20249
G1 X98.256 Y102.025 F7800.000
G1 X98.509 Y102.023 F540.000 E0.23614
G1 X98.509 Y102.023 F7800.000
G1 X98.520 Y102.028 F540.000 E0.23775
G1 X98.206 Y102.204 F7800.000
G1 X98.027 Y102.461 F540.000 E0.27938
G1 X98.027 Y102.461 F7800.000
G1 X98.029 Y102.567 F540.000 E0.29346
G1 F1800.000 E0.19346
G1 Z0.691 F7800.000
G92 E0
G1 X105.469 Y101.965
G1 Z0.397
G1 F1800.000 E0.10000
G1 X105.758 Y101.955 F540.000 E0.13851
G1 X105.758 Y101.955 F7800.000
G1 X105.971 Y101.433 F540.000 E0.21346
G1 X105.754 Y101.961 F7800.000
G1 X105.977 Y102.477 F540.000 E0.28830
G1 F1800.000 E0.18830
G1 Z0.691 F7800.000
G92 E0
G1 X102.020 Y108.206
G1 Z0.397
G1 F1800.000 E0.10000
G1 X101.992 Y108.179 F360.000 E0.10237
G1 X102.073 Y107.748 E0.12914
G1 X101.929 Y107.604 E0.14158
G1 X102.127 Y107.290 E0.16426
G1 X101.867 Y107.030 E0.18676
G1 X102.181 Y106.832 E0.20944
G1 X101.804 Y106.455 E0.24201
G1 X102.059 Y106.199 E0.26412
G1 X102.234 Y106.374 E0.27925
G1 F1800.000 E0.17925
G1 Z0.691 F7800.000
G92 E0
G1 X100.023 Y104.674
G1 Z0.397
G1 F1800.000 E0.10000
G1 X99.814 Y104.465 F360.000 E0.11803
G1 X100.325 Y104.465 F7800.000
G1 X100.493 Y104.632 F360.000 E0.13242
G1 F1800.000 E0.03242
G1 Z0.691 F7800.000
G92 E0
G1 X98.471 Y104.146
G1 Z0.397
G1 F1800.000 E0.10000
G1 X98.239 Y103.914 F360.000 E0.11993
G1 X97.944 Y104.131 F7800.000
G1 X98.241 Y104.428 F360.000 E0.14549
G1 X97.884 Y104.582 F7800.000
G1 X97.649 Y104.347 F360.000 E0.16570
G1 X97.353 Y104.564 F7800.000
G1 X97.526 Y104.736 F360.000 E0.18054
G1 X97.058 Y104.780 F7800.000
G1 X97.168 Y104.890 F360.000 E0.19003
G1 X96.811 Y105.044 F7800.000
G1 X96.763 Y104.996 F360.000 E0.19415
G1 F1800.000 E0.09415
G1 Z0.691 F7800.000
G92 E0
G1 X97.423 Y99.516
G1 Z0.397
G1 F1800.000 E0.10000
G1 X96.936 Y99.029 F360.000 E0.14189
G1 X97.850 Y99.431 F7800.000
G1 X98.471 Y100.052 F360.000 E0.19528
G1 F1800.000 E0.09528
G1 Z0.691 F7800.000
G92 E0
G1 X101.883 Y97.835
G1 Z0.397
G1 F1800.000 E0.10000
G1 X101.756 Y97.707 F360.000 E0.11096
G1 X102.207 Y97.647 F7800.000
G1 X101.810 Y97.249 F360.000 E0.14516
G1 X102.145 Y97.072 F7800.000
G1 X101.863 Y96.791 F360.000 E0.16934
G1 X102.082 Y96.498 F7800.000
G1 X101.917 Y96.333 F360.000 E0.18349
G1 X102.019 Y95.923 F7800.000
G1 X101.971 Y95.875 F360.000 E0.18763
G1 F1800.000 E0.08763
G1 Z0.691 F7800.000
G92 E0
G1 X103.766 Y99.206
G1 Z0.397
G1 F1800.000 E0.10000
G1 X104.095 Y99.535 F360.000 E0.12830
G1 X103.584 Y99.535 F7800.000
G1 X103.488 Y99.440 F360.000 E0.13650
G1 F1800.000 E0.03650
G1 Z0.691 F7800.000
G92 E0
G1 X105.695 Y99.600
G1 Z0.397
G1 F1800.000 E0.10000
G1 X106.003 Y99.908 F360.000 E0.12652
G1 X105.708 Y100.124 F7800.000
G1 X105.592 Y100.008 F360.000 E0.13655
G1 X106.299 Y99.691 F7800.000
G1 X106.053 Y99.445 F360.000 E0.15770
G1 X106.410 Y99.291 F7800.000
G1 X106.594 Y99.475 F360.000 E0.17350
G1 X106.889 Y99.258 F7800.000
G1 X106.768 Y99.137 F360.000 E0.18394
G1 X107.126 Y98.983 F7800.000
G1 X107.185 Y99.042 F360.000 E0.18902
G1 F1800.000 E0.08902
G1 Z0.691 F7800.000
G92 E0
G1 X106.220 Y104.219
G1 Z0.397
G1 F1800.000 E0.10000
G1 X106.901 Y104.900 F360.000 E0.15859
G1 X105.987 Y104.497 F7800.000
G1 X105.592 Y104.102 F360.000 E0.19262
M106 S255
G1 F1800.000 E0.09262
G1 Z0.984 F7800.000
G92 E0
G1 X104.843 Y103.716
G1 Z0.691
G1 F1800.000 E0.10000
G1 X99.220 Y103.716 F600.000 E0.40062
G1 X99.220 Y100.284 E0.58412
G1 X104.843 Y100.284 E0.88474
G1 X104.843 Y103.652 E1.06480
G1 X104.472 Y103.502 F7800.000
G1 X103.633 Y104.572
G1 X103.674 Y104.722 F600.000 E1.07311
G1 X102.220 Y105.575 E1.16322
G1 X102.164 Y106.056 E1.18908
G1 X101.868 Y106.055 E1.20491
G1 X101.815 Y105.568 E1.23107
G1 X100.334 Y104.728 E1.32207
G1 X100.375 Y104.572 E1.33069
G1 X103.569 Y104.572 E1.50139
G1 X104.575 Y104.689 F7800.000
G1 X102.620 Y105.837 F600.000 E1.62258
G1 X102.149 Y109.857 E1.83898
G1 X101.853 Y109.856 E1.85481
G1 X101.413 Y105.832 E2.07120
G1 X98.988 Y104.455 E2.22029
G1 X95.270 Y106.058 E2.43670
G1 X95.123 Y105.801 E2.45253
G1 X98.792 Y103.112 E2.69570
G1 X98.792 Y104.144 E2.75090
G1 X105.271 Y104.144 E3.09727
G1 X105.271 Y103.111 E3.15247
G1 X108.879 Y105.799 E3.39300
G1 X108.730 Y106.055 E3.40883
G1 X105.025 Y104.424 E3.62522
G1 X104.630 Y104.656 E3.64969
G1 F1800.000 E3.54969
G1 Z0.984 F7800.000
G92 E0
G1 X103.625 Y99.428
G1 Z0.691
G1 F1800.000 E0.10000
G1 X100.367 Y99.428 F600.000 E0.27414
G1 X100.326 Y99.278 E0.28245
G1 X101.780 Y98.425 E0.37255
G1 X101.836 Y97.944 E0.39841
G1 X102.132 Y97.945 E0.41424
G1 X102.185 Y98.432 E0.44041
G1 X103.666 Y99.272 E0.53140
G1 X103.641 Y99.366 E0.53659
G1 X103.041 Y98.425 F7800.000
G1 X105.012 Y99.545 F600.000 E0.65778
G1 X108.730 Y97.942 E0.87418
G1 X108.877 Y98.199 E0.89001
G1 X105.271 Y100.843 E1.12903
G1 X105.271 Y99.856 E1.18178
G1 X98.792 Y99.856 E1.52815
G1 X98.792 Y100.935 E1.58584
G1 X95.121 Y98.201 E1.83055
G1 X95.270 Y97.945 E1.84638
G1 X98.975 Y99.576 E2.06276
G1 X101.380 Y98.163 E2.21185
G1 X101.851 Y94.143 E2.42826
G1 X102.147 Y94.144 E2.44409
G1 X102.587 Y98.168 E2.66048
G1 X102.985 Y98.394 E2.68495
G1 X103.252 Y98.053 F7800.000
G1 X105.038 Y99.067 F600.000 E2.79476
G1 X108.666 Y97.504 E3.00590
G1 X109.226 Y98.474 E3.06579
G1 X106.042 Y100.808 E3.27683
G1 X106.059 Y103.165 E3.40284
G1 X109.226 Y105.525 E3.61398
G1 X108.666 Y106.495 E3.67387
G1 X105.053 Y104.904 E3.88491
G1 X103.021 Y106.098 E4.01092
G1 X102.561 Y110.020 E4.22206
G1 X101.441 Y110.020 E4.28195
G1 X101.011 Y106.096 E4.49299
G1 X98.962 Y104.933 E4.61900
G1 X95.334 Y106.496 E4.83015
G1 X94.774 Y105.526 E4.89003
G1 X97.958 Y103.192 E5.10107
G1 X97.941 Y100.835 E5.22708
G1 X94.774 Y98.475 E5.43823
G1 X95.334 Y97.505 E5.49811
G1 X98.947 Y99.096 E5.70915
G1 X100.979 Y97.902 E5.83516
G1 X101.439 Y93.980 E6.04631
G1 X102.559 Y93.980 E6.10619
G1 X102.989 Y97.904 E6.31723
G1 X103.196 Y98.022 E6.33000
G1 X103.255 Y98.481 F7800.000
G1 F1800.000 E6.23000
G1 Z0.984 F7800.000
G92 E0
G1 X98.679 Y102.423
G1 Z0.691
G1 F1800.000 E0.10000
G1 X98.494 Y102.607 F600.000 E0.11956
G1 X98.488 Y101.757 F7800.000
G1 X98.679 Y101.566 F600.000 E0.13977
G1 F1800.000 E0.03977
G1 Z0.984 F7800.000
G92 E0
G1 X100.086 Y99.540
G1 Z0.691
G1 F1800.000 E0.10000
G1 X100.071 Y99.555 F600.000 E0.10057
G1 X99.971 Y99.339 E0.10719
G1 X99.756 Y99.555 E0.11566
G1 F1800.000 E0.01566
G1 Z0.984 F7800.000
G92 E0
G1 X102.156 Y98.911
G1 Z0.691
G1 F1800.000 E0.10000
G1 X102.070 Y98.996 F600.000 E0.10645
G1 X102.046 Y97.191 F7800.000
G1 X101.913 Y97.325 F600.000 E0.11655
G1 X102.016 Y95.716 F7800.000
G1 X101.963 Y95.768 F600.000 E0.11862
G1 F1800.000 E0.01862
G1 Z0.984 F7800.000
G92 E0
G1 X104.265 Y99.466
G1 Z0.691
G1 F1800.000 E0.10000
G1 X104.176 Y99.555 F600.000 E0.10349
G1 X104.064 Y99.352 E0.10995
G1 X103.917 Y99.498 E0.11570
G1 F1800.000 E0.01570
G1 Z0.984 F7800.000
G92 E0
G1 X105.383 Y101.712
G1 Z0.691
G1 F1800.000 E0.10000
G1 X105.507 Y101.588 F600.000 E0.11308
G1 X105.513 Y102.438 F7800.000
G1 X105.410 Y102.541 F600.000 E0.12398
G1 X106.013 Y104.202 F7800.000
G1 X105.884 Y104.331 F600.000 E0.13371
G1 X106.362 Y104.463 F7800.000
G1 X106.308 Y104.517 F600.000 E0.13784
G1 X107.457 Y105.115 F7800.000
G1 X107.422 Y105.151 F600.000 E0.13923
G1 X107.276 Y104.981 E0.14546
G1 X107.203 Y105.054 E0.14835
G1 F1800.000 E0.04835
G1 Z0.984 F7800.000
G92 E0
G1 X104.338 Y104.445
G1 Z0.691
G1 F1800.000 E0.10000
G1 X104.257 Y104.527 F600.000 E0.10322
G1 X104.023 Y104.445 E0.11011
