; generated by Slic3r 0.9.10b on 2015-03-21 at 11:05:09

; layer_height = 0.2937
; perimeters = 3
; top_solid_layers = 3
; bottom_solid_layers = 3
; fill_density = .3
; perimeter_speed = 30
; infill_speed = 60
; travel_speed = 130
; nozzle_diameter = .4
; filament_diameter = 1.73
; extrusion_multiplier = 1
; perimeters extrusion width = 0.44mm
; infill extrusion width = 0.44mm
; solid infill extrusion width = 0.44mm
; top infill extrusion width = 0.44mm
; first layer extrusion width = 0.87mm

G21 ; set units to millimeters
M107
G21 ;SET TO MM
G91 ;SET TO REL
G1 Z5;GO UP 10
G28 X0 YO
G90 ;SET TO ABSOLUTE
G1 X100 Y100 F1100 ;GO TO CENTER
G28 Z0
G1 Z5
G90 ; use absolute coordinates
G92 E0
M82 ; use absolute distances for extrusion
G1 F1800.000 E-0.10000
G1 Z0.691 F7800.000
G92 E0
G1 X76.660 Y75.335
G1 Z0.397
G1 F1800.000 E0.10000
G1 X77.540 Y74.505 F540.000 E0.26095
G1 X78.120 Y74.015 E0.36198
G1 X78.520 Y73.705 E0.42931
G1 X82.370 Y70.915 E1.06193
G1 X83.440 Y70.235 E1.23062
G1 X84.410 Y69.695 E1.37833
G1 X84.900 Y69.455 E1.45093
G1 X89.250 Y67.515 E2.08466
G1 X89.760 Y67.315 E2.15755
G1 X90.760 Y66.965 E2.29852
G1 X91.490 Y66.745 E2.39996
G1 X92.040 Y66.605 E2.47548
G1 X96.700 Y65.615 E3.10935
G1 X97.210 Y65.525 E3.17825
G1 X98.410 Y65.385 E3.33900
G1 X99.610 Y65.315 E3.49894
G1 X104.380 Y65.315 E4.13360
G1 X106.030 Y65.425 E4.35363
G1 X106.780 Y65.525 E4.45430
G1 X107.290 Y65.615 E4.52321
G1 X111.950 Y66.605 E5.15708
G1 X112.500 Y66.745 E5.23259
G1 X113.230 Y66.965 E5.33404
G1 X114.230 Y67.315 E5.47500
G1 X114.740 Y67.515 E5.54789
G1 X119.090 Y69.455 E6.18163
G1 X119.580 Y69.695 E6.25423
G1 X120.240 Y70.055 E6.35425
G1 X121.200 Y70.635 E6.50349
G1 X121.620 Y70.915 E6.57065
G1 X125.470 Y73.705 E7.20328
G1 X126.500 Y74.565 E7.38181
G1 X127.280 Y75.295 E7.52395
G1 X127.660 Y75.685 E7.59640
G1 X130.850 Y79.225 E8.23044
G1 X131.200 Y79.635 E8.30217
G1 X131.890 Y80.555 E8.45518
G1 X132.570 Y81.585 E8.61940
G1 X134.960 Y85.715 E9.25429
G1 X135.220 Y86.225 E9.33046
G1 X135.670 Y87.195 E9.47273
G1 X136.150 Y88.395 E9.64469
G1 X137.620 Y92.925 E10.27837
G1 X137.750 Y93.395 E10.34325
G1 X138.010 Y94.505 E10.49494
G1 X138.230 Y95.795 E10.66906
G1 X138.730 Y100.535 E11.30323
G1 X138.770 Y101.065 E11.37395
G1 X138.790 Y102.175 E11.52166
G1 X138.770 Y102.935 E11.62282
G1 X138.730 Y103.465 E11.69354
G1 X138.230 Y108.205 E12.32771
G1 X138.150 Y108.755 E12.40166
G1 X137.930 Y109.865 E12.55223
G1 X137.620 Y111.065 E12.71713
G1 X136.150 Y115.595 E13.35081
G1 X135.560 Y117.055 E13.56033
G1 X135.240 Y117.745 E13.66153
G1 X134.950 Y118.295 E13.74426
G1 X132.560 Y122.415 E14.37800
G1 X132.310 Y122.815 E14.44076
G1 X131.660 Y123.755 E14.59282
G1 X131.200 Y124.355 E14.69341
G1 X130.850 Y124.765 E14.76514
G1 X127.660 Y128.305 E15.39918
G1 X127.330 Y128.655 E15.46318
G1 X126.780 Y129.185 E15.56481
G1 X125.870 Y129.975 E15.72515
G1 X125.480 Y130.275 E15.79062
G1 X121.630 Y133.075 E16.42402
G1 X121.130 Y133.405 E16.50373
G1 X120.480 Y133.795 E16.60459
G1 X119.580 Y134.295 E16.74158
G1 X119.090 Y134.535 E16.81417
G1 X114.740 Y136.475 E17.44791
G1 X113.520 Y136.925 E17.62092
G1 X112.500 Y137.245 E17.76316
G1 X111.950 Y137.385 E17.83868
G1 X107.290 Y138.375 E18.47254
G1 X106.780 Y138.465 E18.54145
G1 X106.030 Y138.565 E18.64212
G1 X104.920 Y138.665 E18.79041
G1 X104.380 Y138.685 E18.86231
G1 X99.610 Y138.685 E19.49698
G1 X99.070 Y138.665 E19.56888
G1 X98.320 Y138.605 E19.66899
G1 X97.210 Y138.465 E19.81785
G1 X96.700 Y138.375 E19.88675
G1 X92.040 Y137.385 E20.52062
G1 X91.490 Y137.245 E20.59613
G1 X90.760 Y137.025 E20.69758
G1 X89.760 Y136.675 E20.83855
G1 X89.250 Y136.475 E20.91143
G1 X84.900 Y134.535 E21.54517
G1 X84.410 Y134.295 E21.61777
G1 X83.750 Y133.935 E21.71780
G1 X82.860 Y133.405 E21.85562
G1 X82.360 Y133.075 E21.93533
G1 X78.120 Y129.975 E22.63418
G1 X77.210 Y129.185 E22.79452
G1 X76.660 Y128.655 E22.89615
G1 X76.330 Y128.305 E22.96015
G1 X73.140 Y124.765 E23.59419
G1 X72.790 Y124.355 E23.66592
G1 X72.100 Y123.435 E23.81893
G1 X71.430 Y122.415 E23.98130
G1 X69.040 Y118.295 E24.61504
G1 X68.750 Y117.745 E24.69777
G1 X68.320 Y116.795 E24.83652
G1 X68.030 Y116.095 E24.93733
G1 X67.850 Y115.605 E25.00679
G1 X66.370 Y111.075 E25.64088
G1 X66.210 Y110.505 E25.71965
G1 X65.980 Y109.495 E25.85747
G1 X65.840 Y108.755 E25.95768
G1 X65.760 Y108.205 E26.03163
G1 X65.260 Y103.465 E26.66580
G1 X65.220 Y102.845 E26.74847
G1 X65.210 Y101.905 E26.87355
G1 X65.220 Y101.155 E26.97335
G1 X65.260 Y100.535 E27.05601
G1 X65.760 Y95.795 E27.69019
G1 X65.840 Y95.255 E27.76282
G1 X66.040 Y94.215 E27.90373
G1 X66.210 Y93.485 E28.00346
G1 X66.370 Y92.915 E28.08223
G1 X67.850 Y88.385 E28.71632
G1 X68.030 Y87.895 E28.78577
G1 X68.320 Y87.195 E28.88659
G1 X68.770 Y86.225 E29.02886
G1 X69.030 Y85.715 E29.10503
G1 X71.420 Y81.585 E29.73992
G1 X72.100 Y80.555 E29.90414
G1 X72.790 Y79.635 E30.05715
G1 X73.140 Y79.225 E30.12888
G1 X76.579 Y75.421 E30.81118
G1 F1800.000 E30.71118
G1 Z0.691 F7800.000
G92 E0
G1 X79.606 Y79.192
G1 Z0.397
G1 F1800.000 E0.10000
G1 X80.589 Y78.256 F540.000 E0.28069
G1 X81.656 Y77.347 E0.46715
G1 X81.916 Y77.250 E0.50404
G1 X83.051 Y77.240 E0.65511
G1 X83.312 Y77.333 E0.69200
G1 X85.210 Y78.893 E1.01890
G1 X84.312 Y76.606 E1.34585
G1 X84.305 Y76.328 E1.38279
G1 X84.667 Y75.250 E1.53409
G1 X84.840 Y75.033 E1.57103
G1 X85.997 Y74.323 E1.75168
G1 X87.225 Y73.656 E1.93755
G1 X87.499 Y73.615 E1.97448
G1 X88.613 Y73.842 E2.12574
G1 X88.850 Y73.986 E2.16267
G1 X90.383 Y75.909 E2.48980
G1 X89.979 Y73.483 E2.81701
G1 X90.030 Y73.210 E2.85396
G1 X90.608 Y72.230 E3.00531
G1 X90.823 Y72.054 E3.04226
G1 X92.137 Y71.590 E3.22779
G1 X93.438 Y71.202 E3.40833
G1 X93.715 Y71.219 E3.44531
G1 X94.760 Y71.672 E3.59680
G1 X94.962 Y71.863 E3.63378
G1 X96.061 Y74.063 E3.96105
G1 X96.171 Y71.606 E4.28829
G1 X96.278 Y71.350 E4.32525
G1 X97.047 Y70.512 E4.47665
G1 X97.294 Y70.384 E4.51361
G1 X98.676 Y70.204 E4.69905
G1 X100.029 Y70.096 E4.87969
G1 X100.297 Y70.170 E4.91666
G1 X101.224 Y70.830 E5.06809
G1 X101.382 Y71.059 E5.10506
G1 X101.999 Y73.437 E5.43191
G1 X102.616 Y71.059 E5.75876
G1 X102.774 Y70.830 E5.79573
G1 X103.701 Y70.170 E5.94716
G1 X103.969 Y70.096 E5.98413
G1 X105.322 Y70.204 E6.16477
G1 X106.704 Y70.384 E6.35021
G1 X106.951 Y70.512 E6.38717
G1 X107.720 Y71.350 E6.53857
G1 X107.827 Y71.606 E6.57553
G1 X107.937 Y74.063 E6.90277
G1 X109.036 Y71.863 E7.23004
G1 X109.238 Y71.672 E7.26702
G1 X110.283 Y71.219 E7.41851
G1 X110.560 Y71.202 E7.45549
G1 X111.861 Y71.590 E7.63603
G1 X113.175 Y72.054 E7.82156
G1 X113.390 Y72.230 E7.85851
G1 X113.968 Y73.210 E8.00986
G1 X114.019 Y73.483 E8.04681
G1 X113.615 Y75.909 E8.37402
G1 X115.148 Y73.986 E8.70115
G1 X115.385 Y73.842 E8.73808
G1 X116.499 Y73.615 E8.88934
G1 X116.773 Y73.656 E8.92627
G1 X118.001 Y74.323 E9.11214
G1 X119.158 Y75.033 E9.29279
G1 X119.331 Y75.250 E9.32973
G1 X119.693 Y76.328 E9.48104
G1 X119.686 Y76.606 E9.51798
G1 X118.788 Y78.893 E9.84492
G1 X120.686 Y77.333 E10.17183
G1 X120.947 Y77.240 E10.20871
G1 X122.082 Y77.250 E10.35979
G1 X122.342 Y77.347 E10.39667
G1 X123.409 Y78.256 E10.58314
G1 X124.392 Y79.192 E10.76382
G1 X124.515 Y79.441 E10.80072
G1 X124.643 Y80.569 E10.95185
G1 X124.579 Y80.839 E10.98875
G1 X123.225 Y82.888 E11.31556
G1 X125.408 Y81.756 E11.64274
G1 X125.683 Y81.720 E11.67968
G1 X126.793 Y81.968 E11.83101
G1 X127.027 Y82.117 E11.86795
G1 X127.852 Y83.193 E12.04825
G1 X128.643 Y84.341 E12.23384
G1 X128.713 Y84.610 E12.27080
G1 X128.605 Y85.743 E12.42220
G1 X128.486 Y85.993 E12.45916
G1 X126.734 Y87.719 E12.78633
G1 X129.104 Y87.065 E13.11353
G1 X129.381 Y87.087 E13.15048
G1 X130.416 Y87.559 E13.30182
G1 X130.614 Y87.754 E13.33877
G1 X131.197 Y88.979 E13.51927
G1 X131.734 Y90.267 E13.70493
G1 X131.746 Y90.544 E13.74190
G1 X131.405 Y91.631 E13.89337
G1 X131.236 Y91.851 E13.93035
G1 X129.164 Y93.174 E14.25743
G1 X131.615 Y93.026 E14.58409
G1 X131.880 Y93.105 E14.62100
G1 X132.794 Y93.781 E14.77215
G1 X132.947 Y94.012 E14.80906
G1 X133.267 Y95.332 E14.98983
G1 X133.520 Y96.711 E15.17634
G1 X133.474 Y96.984 E15.21321
G1 X132.914 Y97.972 E15.36425
G1 X132.704 Y98.152 E15.40112
G1 X130.404 Y99.015 E15.72794
G1 X132.836 Y99.382 E16.05519
G1 X133.080 Y99.514 E16.09212
G1 X133.833 Y100.366 E16.24339
G1 X133.934 Y100.625 E16.28033
G1 X133.970 Y101.980 E16.46074
G1 X133.934 Y103.378 E16.64674
G1 X133.833 Y103.636 E16.68368
G1 X133.079 Y104.488 E16.83501
G1 X132.835 Y104.621 E16.87195
G1 X130.404 Y104.986 E17.19909
G1 X132.704 Y105.851 E17.52607
G1 X132.915 Y106.031 E17.56295
G1 X133.474 Y107.019 E17.71398
G1 X133.520 Y107.292 E17.75086
G1 X133.266 Y108.668 E17.93702
G1 X132.947 Y109.988 E18.11775
G1 X132.794 Y110.219 E18.15466
G1 X131.880 Y110.895 E18.30581
G1 X131.615 Y110.974 E18.34272
G1 X129.164 Y110.826 E18.66938
G1 X131.235 Y112.149 E18.99640
G1 X131.404 Y112.369 E19.03335
G1 X131.746 Y113.454 E19.18470
G1 X131.734 Y113.732 E19.22165
G1 X131.214 Y114.986 E19.40232
G1 X130.612 Y116.247 E19.58828
G1 X130.414 Y116.442 E19.62521
G1 X129.380 Y116.913 E19.77648
G1 X129.103 Y116.935 E19.81341
G1 X126.732 Y116.280 E20.14066
G1 X128.486 Y118.007 E20.46808
G1 X128.605 Y118.257 E20.50504
G1 X128.713 Y119.390 E20.65644
G1 X128.643 Y119.659 E20.69340
G1 X127.852 Y120.807 E20.87898
G1 X127.027 Y121.883 E21.05928
G1 X126.793 Y122.032 E21.09622
G1 X125.683 Y122.280 E21.24755
G1 X125.408 Y122.244 E21.28449
G1 X123.225 Y121.112 E21.61167
G1 X124.579 Y123.161 E21.93848
G1 X124.643 Y123.431 E21.97538
G1 X124.515 Y124.559 E22.12651
G1 X124.392 Y124.808 E22.16341
G1 X123.409 Y125.744 E22.34410
G1 X122.342 Y126.653 E22.53059
G1 X122.082 Y126.750 E22.56748
G1 X120.946 Y126.760 E22.71860
G1 X120.685 Y126.667 E22.75549
G1 X118.787 Y125.106 E23.08249
G1 X119.686 Y127.394 E23.40963
G1 X119.693 Y127.672 E23.44657
G1 X119.331 Y128.750 E23.59788
G1 X119.158 Y128.967 E23.63482
G1 X118.001 Y129.677 E23.81547
G1 X116.773 Y130.344 E24.00133
G1 X116.499 Y130.385 E24.03825
G1 X115.385 Y130.159 E24.18947
G1 X115.148 Y130.014 E24.22639
G1 X113.615 Y128.092 E24.55344
G1 X114.019 Y130.517 E24.88049
G1 X113.968 Y130.790 E24.91744
G1 X113.390 Y131.770 E25.06880
G1 X113.175 Y131.946 E25.10575
G1 X111.861 Y132.410 E25.29127
G1 X110.560 Y132.798 E25.47180
G1 X110.283 Y132.781 E25.50878
G1 X109.238 Y132.328 E25.66024
G1 X109.037 Y132.137 E25.69722
G1 X107.937 Y129.937 E26.02443
G1 X107.827 Y132.394 E26.35156
G1 X107.720 Y132.650 E26.38852
G1 X106.951 Y133.488 E26.53991
G1 X106.704 Y133.616 E26.57687
G1 X105.322 Y133.796 E26.76232
G1 X103.969 Y133.904 E26.94295
G1 X103.701 Y133.830 E26.97992
G1 X102.774 Y133.170 E27.13136
G1 X102.616 Y132.941 E27.16833
G1 X101.999 Y130.563 E27.49518
G1 X101.382 Y132.941 E27.82203
G1 X101.224 Y133.170 E27.85900
G1 X100.297 Y133.830 E28.01043
G1 X100.029 Y133.904 E28.04740
G1 X98.676 Y133.796 E28.22804
G1 X97.294 Y133.616 E28.41348
G1 X97.047 Y133.488 E28.45044
G1 X96.278 Y132.650 E28.60184
G1 X96.171 Y132.394 E28.63880
G1 X96.061 Y129.937 E28.96592
G1 X94.961 Y132.137 E29.29314
G1 X94.760 Y132.328 E29.33011
G1 X93.715 Y132.781 E29.48158
G1 X93.438 Y132.798 E29.51856
G1 X92.137 Y132.410 E29.69908
G1 X90.823 Y131.946 E29.88461
G1 X90.608 Y131.770 E29.92156
G1 X90.030 Y130.790 E30.07291
G1 X89.979 Y130.517 E30.10986
G1 X90.382 Y128.092 E30.43691
G1 X88.850 Y130.014 E30.76397
G1 X88.613 Y130.159 E30.80089
G1 X87.499 Y130.385 E30.95211
G1 X87.225 Y130.344 E30.98903
G1 X85.997 Y129.677 E31.17488
G1 X84.840 Y128.967 E31.35553
G1 X84.667 Y128.750 E31.39247
G1 X84.305 Y127.672 E31.54378
G1 X84.312 Y127.394 E31.58072
G1 X85.211 Y125.106 E31.90786
G1 X83.313 Y126.667 E32.23486
G1 X83.052 Y126.760 E32.27176
G1 X81.916 Y126.750 E32.42287
G1 X81.656 Y126.653 E32.45977
G1 X80.589 Y125.744 E32.64626
G1 X79.606 Y124.808 E32.82694
G1 X79.483 Y124.559 E32.86384
G1 X79.355 Y123.431 E33.01498
G1 X79.419 Y123.161 E33.05188
G1 X80.773 Y121.112 E33.37869
G1 X78.590 Y122.244 E33.70586
G1 X78.315 Y122.280 E33.74281
G1 X77.205 Y122.032 E33.89413
G1 X76.971 Y121.883 E33.93107
G1 X76.122 Y120.775 E34.11676
G1 X75.355 Y119.659 E34.29696
G1 X75.285 Y119.390 E34.33392
G1 X75.393 Y118.257 E34.48532
G1 X75.512 Y118.007 E34.52228
G1 X77.266 Y116.280 E34.84970
G1 X74.895 Y116.935 E35.17695
G1 X74.618 Y116.913 E35.21388
G1 X73.584 Y116.442 E35.36515
G1 X73.386 Y116.247 E35.40208
G1 X72.784 Y114.986 E35.58803
G1 X72.264 Y113.732 E35.76870
G1 X72.252 Y113.454 E35.80565
G1 X72.594 Y112.369 E35.95701
G1 X72.763 Y112.149 E35.99396
G1 X74.834 Y110.826 E36.32099
G1 X72.380 Y110.974 E36.64809
G1 X72.114 Y110.894 E36.68507
G1 X71.200 Y110.217 E36.83652
G1 X71.046 Y109.985 E36.87349
G1 X70.731 Y108.666 E37.05390
G1 X70.475 Y107.296 E37.23932
G1 X70.521 Y107.022 E37.27627
G1 X71.080 Y106.031 E37.42763
G1 X71.291 Y105.851 E37.46458
G1 X73.593 Y104.986 E37.79180
G1 X71.162 Y104.620 E38.11897
G1 X70.917 Y104.487 E38.15598
G1 X70.164 Y103.633 E38.30761
G1 X70.062 Y103.374 E38.34462
G1 X70.030 Y102.020 E38.52480
G1 X70.062 Y100.629 E38.70993
G1 X70.163 Y100.370 E38.74693
G1 X70.917 Y99.515 E38.89850
G1 X71.161 Y99.382 E38.93551
G1 X73.593 Y99.015 E39.26279
G1 X71.292 Y98.152 E39.58984
G1 X71.081 Y97.971 E39.62679
G1 X70.521 Y96.981 E39.77815
G1 X70.475 Y96.707 E39.81510
G1 X70.731 Y95.334 E40.00087
G1 X71.046 Y94.015 E40.18132
G1 X71.200 Y93.783 E40.21829
G1 X72.114 Y93.106 E40.36974
G1 X72.380 Y93.026 E40.40672
G1 X74.834 Y93.174 E40.73382
G1 X72.762 Y91.851 E41.06091
G1 X72.593 Y91.631 E41.09789
G1 X72.252 Y90.544 E41.24936
G1 X72.264 Y90.267 E41.28634
G1 X72.801 Y88.979 E41.47200
G1 X73.384 Y87.754 E41.65249
G1 X73.582 Y87.559 E41.68944
G1 X74.617 Y87.087 E41.84078
G1 X74.894 Y87.065 E41.87773
G1 X77.264 Y87.719 E42.20493
G1 X75.512 Y85.993 E42.53211
G1 X75.393 Y85.743 E42.56907
G1 X75.285 Y84.610 E42.72047
G1 X75.355 Y84.341 E42.75743
G1 X76.122 Y83.225 E42.93763
G1 X76.971 Y82.117 E43.12331
G1 X77.205 Y81.968 E43.16025
G1 X78.315 Y81.720 E43.31158
G1 X78.590 Y81.756 E43.34852
G1 X80.773 Y82.888 E43.67570
G1 X79.419 Y80.839 E44.00251
G1 X79.355 Y80.569 E44.03941
G1 X79.483 Y79.441 E44.19054
G1 X79.553 Y79.298 E44.21171
G1 X80.357 Y79.565 F7800.000
G1 X81.141 Y78.819 F540.000 E44.35579
G1 X81.949 Y78.132 E44.49683
G1 X82.208 Y78.035 E44.53372
G1 X82.772 Y78.031 E44.60867
G1 X83.033 Y78.123 E44.64555
G1 X85.662 Y80.284 E45.09830
G1 X86.394 Y79.752 E45.21876
G1 X85.151 Y76.584 E45.67156
G1 X85.144 Y76.307 E45.70850
G1 X85.323 Y75.772 E45.78357
G1 X85.496 Y75.555 E45.82051
G1 X86.400 Y75.000 E45.96164
G1 X87.349 Y74.485 E46.10522
G1 X87.623 Y74.445 E46.14215
G1 X88.176 Y74.557 E46.21719
G1 X88.412 Y74.702 E46.25412
G1 X90.534 Y77.363 E46.70692
G1 X91.362 Y76.994 E46.82753
G1 X90.804 Y73.637 E47.28035
G1 X90.855 Y73.363 E47.31730
G1 X91.141 Y72.877 E47.39239
G1 X91.356 Y72.701 E47.42934
G1 X92.372 Y72.342 E47.57272
G1 X93.388 Y72.040 E47.71375
G1 X93.665 Y72.056 E47.75073
G1 X94.183 Y72.281 E47.82588
G1 X94.385 Y72.472 E47.86287
G1 X95.907 Y75.518 E48.31598
G1 X96.793 Y75.330 E48.43648
G1 X96.946 Y71.928 E48.88956
G1 X97.052 Y71.672 E48.92652
G1 X97.434 Y71.256 E49.00163
G1 X97.681 Y71.128 E49.03859
G1 X98.748 Y70.988 E49.18187
G1 X99.806 Y70.904 E49.32301
G1 X100.074 Y70.978 E49.35998
G1 X100.534 Y71.306 E49.43510
G1 X100.691 Y71.535 E49.47207
G1 X101.546 Y74.830 E49.92503
G1 X102.452 Y74.830 E50.04547
G1 X103.307 Y71.535 E50.49842
G1 X103.464 Y71.306 E50.53539
G1 X103.924 Y70.978 E50.61052
G1 X104.192 Y70.904 E50.64749
G1 X105.250 Y70.988 E50.78863
G1 X106.317 Y71.128 E50.93191
G1 X106.564 Y71.256 E50.96887
G1 X106.946 Y71.672 E51.04398
G1 X107.052 Y71.928 E51.08094
G1 X107.205 Y75.330 E51.53398
G1 X108.091 Y75.518 E51.65451
G1 X109.613 Y72.472 E52.10757
G1 X109.815 Y72.281 E52.14456
G1 X110.333 Y72.056 E52.21971
G1 X110.610 Y72.040 E52.25669
G1 X111.626 Y72.342 E52.39772
G1 X112.642 Y72.701 E52.54110
G1 X112.857 Y72.877 E52.57806
G1 X113.143 Y73.363 E52.65314
G1 X113.194 Y73.637 E52.69009
G1 X112.636 Y76.994 E53.14291
G1 X113.464 Y77.363 E53.26352
G1 X115.586 Y74.702 E53.71632
G1 X115.822 Y74.557 E53.75325
G1 X116.375 Y74.445 E53.82829
G1 X116.649 Y74.485 E53.86522
G1 X117.598 Y75.000 E54.00880
G1 X118.502 Y75.555 E54.14993
