; generated by Slic3r 1.2.9 on 2015-12-27 at 06:51:25

; external perimeters extrusion width = 0.40mm
; perimeters extrusion width = 0.56mm
; infill extrusion width = 0.56mm
; solid infill extrusion width = 0.56mm
; top infill extrusion width = 0.56mm

M107
G21 ;SET TO MM
G91 ;SET TO REL
G1 Z5;GO UP 10
G28 X0 YO
G90 ;SET TO ABSOLUTE
G1 X100 Y100 F1100 ;GO TO CENTER
G28 Z0
G1 Z5
G21 ; set units to millimeters
G90 ; use absolute coordinates
M82 ; use absolute distances for extrusion
G92 E0
G1 E-2.00000 F1800.00000
G92 E0
G1 Z1.000 F9000.000
G1 X60.029 Y59.536 F9000.000
G1 Z0.397 F9000.000
G1 E2.00000 F1800.00000
G1 X61.787 Y58.020 E2.30891 F1080.000
G1 X63.954 Y57.185 E2.61783
G1 X65.275 Y57.055 E2.79448
G1 X134.725 Y57.055 E12.03508
G1 X137.013 Y57.452 E12.34399
G1 X139.032 Y58.597 E12.65291
G1 X140.548 Y60.355 E12.96182
G1 X141.383 Y62.522 E13.27074
G1 X141.513 Y63.843 E13.44739
G1 X141.513 Y136.157 E23.06905
G1 X141.116 Y138.445 E23.37796
G1 X139.971 Y140.464 E23.68688
G1 X138.213 Y141.980 E23.99579
G1 X136.046 Y142.815 E24.30471
G1 X134.725 Y142.945 E24.48136
G1 X65.275 Y142.945 E33.72195
G1 X62.988 Y142.548 E34.03086
G1 X60.968 Y141.403 E34.33978
G1 X59.452 Y139.645 E34.64869
G1 X58.617 Y137.478 E34.95761
G1 X58.487 Y136.157 E35.13424
G1 X58.487 Y63.843 E44.75592
G1 X58.884 Y61.555 E45.06484
G1 X59.999 Y59.588 E45.36577
G1 E43.36577 F1800.00000
G92 E0
G1 Z1.397 F9000.000
G1 X129.568 Y113.121 F9000.000
G1 Z0.397 F9000.000
G1 E2.00000 F1800.00000
G1 X129.028 Y112.738 E2.08804 F540.000
G1 X128.610 Y112.234 E2.17521
G1 X128.344 Y111.642 E2.26160
G1 X128.253 Y111.001 E2.34769
G1 X128.344 Y110.360 E2.43378
G1 X128.610 Y109.768 E2.52017
G1 X129.028 Y109.264 E2.60734
G1 X129.568 Y108.881 E2.69538
G1 X130.192 Y108.642 E2.78424
G1 X130.842 Y108.563 E2.87144
G1 X131.521 Y108.642 E2.96236
G1 X132.143 Y108.881 E3.05107
G1 X132.685 Y109.264 E3.13937
G1 X133.102 Y109.769 E3.22644
G1 X133.367 Y110.360 E3.31275
G1 X133.459 Y111.001 E3.39884
G1 X133.367 Y111.642 E3.48492
G1 X133.102 Y112.233 E3.57123
G1 X132.685 Y112.738 E3.65830
G1 X132.143 Y113.121 E3.74660
G1 X131.522 Y113.360 E3.83516
G1 X130.856 Y113.441 E3.92448
G1 X130.192 Y113.360 E4.01348
G1 X129.624 Y113.142 E4.09435
G1 X129.220 Y113.318 F9000.000
G1 X74.599 Y111.001 F9000.000
G1 X74.480 Y111.837 E4.20673 F540.000
G1 X74.135 Y112.604 E4.31863
G1 X73.601 Y113.250 E4.43023
G1 X72.917 Y113.735 E4.54179
G1 X72.135 Y114.035 E4.65311
G1 X71.309 Y114.134 E4.76391
G1 X70.480 Y114.035 E4.87499
G1 X69.698 Y113.735 E4.98636
G1 X69.011 Y113.248 E5.09838
G1 X68.472 Y112.589 E5.21167
G1 X68.136 Y111.835 E5.32155
G1 X68.017 Y111.001 E5.43363
G1 X68.136 Y110.167 E5.54572
G1 X68.478 Y109.400 E5.65751
G1 X69.014 Y108.752 E5.76939
G1 X69.698 Y108.267 E5.88096
G1 X70.480 Y107.967 E5.99233
G1 X71.293 Y107.869 E6.10133
G1 X72.132 Y107.966 E6.21372
G1 X72.917 Y108.267 E6.32548
G1 X73.601 Y108.752 E6.43704
G1 X74.135 Y109.398 E6.54864
G1 X74.480 Y110.165 E6.66054
G1 X74.591 Y110.942 E6.76493
G1 X73.803 Y111.001 F9000.000
G1 X73.716 Y111.616 E6.84755 F540.000
G1 X73.460 Y112.184 E6.93044
G1 X73.060 Y112.668 E7.01401
G1 X72.542 Y113.035 E7.09849
G1 X71.944 Y113.264 E7.18365
G1 X71.308 Y113.341 E7.26886
G1 X70.671 Y113.264 E7.35434
G1 X70.073 Y113.035 E7.43952
G1 X69.554 Y112.667 E7.52417
G1 X69.149 Y112.172 E7.60924
G1 X68.901 Y111.615 E7.69041
G1 X68.813 Y111.001 E7.77292
G1 X68.901 Y110.387 E7.85542
G1 X69.154 Y109.819 E7.93821
G1 X69.555 Y109.334 E8.02188
G1 X70.073 Y108.967 E8.10636
G1 X70.671 Y108.738 E8.19154
G1 X71.295 Y108.663 E8.27523
G1 X71.943 Y108.738 E8.36203
G1 X72.542 Y108.967 E8.44735
G1 X73.060 Y109.334 E8.53183
G1 X73.460 Y109.818 E8.61540
G1 X73.716 Y110.386 E8.69829
G1 X73.795 Y110.942 E8.77292
G1 X74.140 Y111.217 F9000.000
G1 X125.418 Y89.863 F9000.000
G1 X125.295 Y89.001 E8.88873 F540.000
G1 X125.418 Y88.139 E9.00454
G1 X125.773 Y87.347 E9.12002
G1 X126.326 Y86.681 E9.23526
G1 X127.031 Y86.181 E9.35026
G1 X127.838 Y85.872 E9.46526
G1 X128.676 Y85.769 E9.57764
G1 X129.548 Y85.870 E9.69434
G1 X130.358 Y86.181 E9.80984
G1 X131.065 Y86.682 E9.92507
G1 X131.615 Y87.349 E10.04013
G1 X131.970 Y88.139 E10.15539
G1 X132.093 Y89.001 E10.27120
G1 X131.970 Y89.863 E10.38701
G1 X131.615 Y90.653 E10.50227
G1 X131.065 Y91.320 E10.61733
G1 X130.358 Y91.821 E10.73256
G1 X129.551 Y92.130 E10.84760
G1 X128.693 Y92.235 E10.96254
G1 X127.838 Y92.130 E11.07719
G1 X127.031 Y91.821 E11.19219
G1 X126.326 Y91.321 E11.30720
G1 X125.773 Y90.655 E11.42243
G1 X125.442 Y89.917 E11.52993
G1 X126.182 Y89.642 F9000.000
G1 X126.091 Y89.001 E11.61601 F540.000
G1 X126.182 Y88.360 E11.70210
G1 X126.448 Y87.768 E11.78850
G1 X126.866 Y87.264 E11.87566
G1 X127.406 Y86.881 E11.96370
G1 X128.029 Y86.642 E12.05256
G1 X128.679 Y86.563 E12.13960
G1 X129.358 Y86.642 E12.23063
G1 X129.983 Y86.881 E12.31966
G1 X130.523 Y87.264 E12.40778
G1 X130.940 Y87.768 E12.49478
G1 X131.205 Y88.360 E12.58110
G1 X131.297 Y89.001 E12.66718
G1 X131.205 Y89.642 E12.75327
G1 X130.940 Y90.233 E12.83959
G1 X130.523 Y90.738 E12.92659
G1 X129.983 Y91.121 E13.01470
G1 X129.360 Y91.360 E13.10357
G1 X128.694 Y91.441 E13.19285
G1 X128.029 Y91.360 E13.28186
G1 X127.406 Y91.121 E13.37072
G1 X126.866 Y90.738 E13.45876
G1 X126.448 Y90.234 E13.54592
G1 X126.207 Y89.696 E13.62433
G1 X125.799 Y89.528 F9000.000
G1 E11.62433 F1800.00000
G92 E0
G1 Z1.397 F9000.000
G1 X130.251 Y91.622 F9000.000
G1 X132.136 Y92.166 F9000.000
G1 X132.521 Y91.026 F9000.000
G1 X132.693 Y90.222 F9000.000
G1 X132.712 Y90.562 F9000.000
G1 Z0.397 F9000.000
G1 E2.00000 F1800.00000
G1 X132.712 Y107.411 E4.24182 F540.000
G1 X131.901 Y107.099 E4.35755
G1 X130.838 Y106.976 E4.49993
G1 X129.809 Y107.101 E4.63787
G1 X128.818 Y107.481 E4.77900
G1 X127.948 Y108.098 E4.92098
G1 X127.260 Y108.927 E5.06428
G1 X126.815 Y109.918 E5.20886
G1 X126.661 Y111.001 E5.35439
G1 X126.815 Y112.084 E5.49992
G1 X127.260 Y113.075 E5.64449
G1 X127.948 Y113.904 E5.78780
G1 X128.818 Y114.521 E5.92977
G1 X129.809 Y114.901 E6.07090
G1 X130.855 Y115.028 E6.21119
G1 X131.906 Y114.901 E6.35197
G1 X132.712 Y114.591 E6.46699
G1 X132.712 Y134.144 E9.06871
G1 X67.288 Y134.144 E17.77373
G1 X67.288 Y112.787 E20.61541
G1 X67.662 Y112.707 E20.66634
G1 X67.795 Y113.006 E20.70990
G1 X68.469 Y113.830 E20.85141
G1 X69.323 Y114.436 E20.99082
G1 X70.289 Y114.805 E21.12837
G1 X71.309 Y114.928 E21.26506
G1 X72.326 Y114.805 E21.40144
G1 X73.291 Y114.436 E21.53892
G1 X74.141 Y113.833 E21.67756
G1 X74.810 Y113.025 E21.81718
G1 X75.245 Y112.059 E21.95809
G1 X75.395 Y111.001 E22.10024
G1 X75.245 Y109.943 E22.24238
G1 X74.810 Y108.977 E22.38329
G1 X74.141 Y108.169 E22.52291
G1 X73.291 Y107.566 E22.66155
G1 X72.321 Y107.195 E22.79977
G1 X71.291 Y107.076 E22.93773
G1 X70.289 Y107.197 E23.07206
G1 X69.323 Y107.566 E23.20961
G1 X68.473 Y108.169 E23.34826
G1 X67.802 Y108.980 E23.48837
G1 X67.662 Y109.295 E23.53415
G1 X67.288 Y109.215 E23.58509
G1 X67.288 Y92.591 E25.79702
G1 X68.098 Y92.901 E25.91245
G1 X69.147 Y93.028 E26.05306
G1 X70.193 Y92.901 E26.19335
G1 X71.168 Y92.527 E26.33222
G1 X72.049 Y91.908 E26.47554
G1 X72.742 Y91.076 E26.61954
G1 X73.187 Y90.084 E26.76427
G1 X73.341 Y89.001 E26.90980
G1 X73.187 Y87.918 E27.05533
G1 X72.742 Y86.927 E27.19990
G1 X72.054 Y86.098 E27.34321
G1 X71.184 Y85.481 E27.48518
G1 X70.189 Y85.099 E27.62699
G1 X69.130 Y84.976 E27.76882
G1 X68.098 Y85.101 E27.90717
G1 X67.288 Y85.411 E28.02260
G1 X67.288 Y65.856 E30.62457
G1 X132.712 Y65.856 E39.32960
G1 X132.712 Y87.440 E42.20143
G1 X131.606 Y86.100 E42.43264
G1 X130.733 Y85.481 E42.57499
G1 X129.737 Y85.099 E42.71695
G1 X128.674 Y84.976 E42.85931
G1 X127.647 Y85.101 E42.99704
G1 X126.656 Y85.481 E43.13817
G1 X125.786 Y86.098 E43.28015
G1 X125.098 Y86.927 E43.42345
G1 X124.653 Y87.918 E43.56802
G1 X124.499 Y89.001 E43.71355
G1 X124.653 Y90.084 E43.85908
G1 X125.098 Y91.075 E44.00365
G1 X125.786 Y91.904 E44.14695
G1 X126.656 Y92.521 E44.28892
G1 X127.647 Y92.901 E44.43006
G1 X128.693 Y93.028 E44.57035
G1 X129.742 Y92.901 E44.71096
G1 X130.733 Y92.521 E44.85216
G1 X131.606 Y91.902 E44.99451
G1 X132.674 Y90.609 E45.21773
G1 X133.500 Y108.875 F9000.000
G1 X132.518 Y108.181 E45.37784 F540.000
G1 X131.711 Y107.870 E45.49287
G1 X130.840 Y107.769 E45.60952
G1 X130.000 Y107.872 E45.72210
G1 X129.193 Y108.181 E45.83709
G1 X128.488 Y108.681 E45.95210
G1 X127.935 Y109.347 E46.06734
G1 X127.580 Y110.139 E46.18282
G1 X127.457 Y111.001 E46.29863
G1 X127.580 Y111.863 E46.41444
G1 X127.935 Y112.655 E46.52992
G1 X128.488 Y113.321 E46.64516
G1 X129.193 Y113.821 E46.76017
G1 X130.000 Y114.130 E46.87516
G1 X130.855 Y114.235 E46.98981
G1 X131.714 Y114.130 E47.10485
G1 X132.518 Y113.821 E47.21947
G1 X133.500 Y113.127 E47.37957
G1 X133.500 Y134.932 E50.28091
G1 X66.500 Y134.932 E59.19562
G1 X66.500 Y91.124 E65.02450
G1 X67.482 Y91.821 E65.18475
G1 X68.289 Y92.130 E65.29977
G1 X69.147 Y92.235 E65.41472
G1 X70.002 Y92.130 E65.52937
G1 X70.795 Y91.827 E65.64235
G1 X71.511 Y91.323 E65.75876
G1 X72.067 Y90.655 E65.87444
G1 X72.422 Y89.863 E65.99002
G1 X72.545 Y89.001 E66.10583
G1 X72.422 Y88.139 E66.22164
G1 X72.067 Y87.347 E66.33712
G1 X71.514 Y86.681 E66.45236
G1 X70.809 Y86.181 E66.56737
G1 X69.999 Y85.871 E66.68277
G1 X69.132 Y85.769 E66.79895
G1 X68.289 Y85.872 E66.91191
G1 X67.482 Y86.181 E67.02693
G1 X66.500 Y86.878 E67.18718
G1 X66.500 Y65.068 E70.08914
G1 X133.500 Y65.068 E79.00386
G1 X133.500 Y108.815 E84.82466
G1 X71.658 Y89.642 F9000.000
G1 X71.392 Y90.234 E84.91109 F540.000
G1 X70.972 Y90.739 E84.99846
G1 X70.422 Y91.126 E85.08797
G1 X69.810 Y91.360 E85.17505
G1 X69.146 Y91.441 E85.26406
G1 X68.480 Y91.360 E85.35334
G1 X67.857 Y91.121 E85.44220
G1 X67.317 Y90.738 E85.53033
G1 X66.900 Y90.233 E85.61733
G1 X66.635 Y89.642 E85.70364
G1 X66.543 Y89.000 E85.78989
G1 X66.640 Y88.350 E85.87734
G1 X66.900 Y87.769 E85.96208
G1 X67.317 Y87.264 E86.04908
G1 X67.857 Y86.881 E86.13720
G1 X68.480 Y86.642 E86.22607
G1 X69.134 Y86.563 E86.31362
G1 X69.809 Y86.642 E86.40416
G1 X70.434 Y86.881 E86.49316
G1 X70.974 Y87.264 E86.58120
G1 X71.392 Y87.768 E86.66837
G1 X71.658 Y88.360 E86.75476
G1 X71.749 Y89.001 E86.84085
G1 X71.666 Y89.582 E86.91896
G1 X71.921 Y89.942 F9000.000
G1 X65.712 Y64.280 F9000.000
G1 X134.288 Y64.280 E96.04338 F378.000
G1 X134.288 Y135.720 E105.54886
G1 X65.712 Y135.720 E114.67327
G1 X65.712 Y64.340 E124.17077
G1 X66.058 Y64.480 F9000.000
G1 X67.352 Y109.631 F9000.000
G1 X67.258 Y110.950 E124.54142 F360.000
G1 X67.352 Y112.371 E124.94086
G1 X67.770 Y114.248 F9000.000
G1 X87.184 Y133.662 E128.61200 F1080.000
G1 X86.064 Y133.662 E128.76176
G1 X67.770 Y115.368 E132.22112
G1 X67.770 Y116.488 E132.37087
G1 X84.944 Y133.662 E135.61845
G1 X83.824 Y133.662 E135.76820
G1 X67.770 Y117.608 E138.80399
G1 X67.770 Y118.728 E138.95374
G1 X82.704 Y133.662 E141.77774
G1 X81.584 Y133.662 E141.92750
G1 X67.770 Y119.848 E144.53971
G1 X67.770 Y120.968 E144.68946
G1 X80.464 Y133.662 E147.08989
G1 X79.344 Y133.662 E147.23965
G1 X67.770 Y122.088 E149.42828
G1 X67.770 Y123.208 E149.57804
G1 X78.224 Y133.662 E151.55489
G1 X77.104 Y133.662 E151.70465
G1 X67.770 Y124.328 E153.46971
G1 X67.770 Y125.448 E153.61947
G1 X75.984 Y133.662 E155.17274
G1 X74.864 Y133.662 E155.32250
G1 X67.770 Y126.568 E156.66399
G1 X67.770 Y127.688 E156.81375
G1 X73.744 Y133.662 E157.94345
G1 X72.624 Y133.662 E158.09321
G1 X67.770 Y128.808 E159.01112
G1 X67.770 Y129.928 E159.16088
G1 X71.504 Y133.662 E159.86701
G1 X70.384 Y133.662 E160.01676
G1 X67.770 Y131.048 E160.51111
G1 X67.770 Y132.168 E160.66086
G1 X69.264 Y133.662 E160.94342
G1 X68.145 Y133.662 E161.09317
G1 X67.770 Y133.288 E161.16394
G1 X69.886 Y115.244 F9000.000
G1 X88.304 Y133.662 E164.64687 F1080.000
G1 X89.424 Y133.662 E164.79662
G1 X71.173 Y115.412 E168.24778
G1 X72.173 Y115.291 E168.38237
G1 X90.544 Y133.662 E171.85634
G1 X91.664 Y133.662 E172.00610
G1 X73.010 Y115.008 E175.53357
G1 X73.746 Y114.624 E175.64457
G1 X92.783 Y133.662 E179.24464
G1 X93.903 Y133.662 E179.39440
G1 X74.401 Y114.160 E183.08232
G1 X74.913 Y113.551 E183.18861
G1 X95.023 Y133.662 E186.99163
G1 X96.143 Y133.662 E187.14138
G1 X75.350 Y112.869 E191.07338
G1 X75.698 Y112.096 E191.18665
G1 X97.263 Y133.662 E195.26473
G1 X98.383 Y133.662 E195.41449
G1 X75.843 Y111.122 E199.67684
G1 X75.753 Y109.912 E199.83911
G1 X99.503 Y133.662 E204.33031
G1 X132.230 Y120.470 F9000.000
G1 X78.098 Y66.338 E214.56686 F1080.000
G1 X76.978 Y66.338 E214.71661
G1 X132.230 Y121.590 E225.16495
G1 X132.230 Y122.710 E225.31470
G1 X75.858 Y66.338 E235.97482
G1 X74.738 Y66.338 E236.12458
G1 X132.230 Y123.830 E246.99649
G1 X132.230 Y124.950 E247.14624
G1 X73.618 Y66.338 E258.22994
G1 X72.498 Y66.338 E258.37969
G1 X132.230 Y126.070 E269.67517
G1 X132.230 Y127.190 E269.82493
G1 X71.378 Y66.338 E281.33220
G1 X70.258 Y66.338 E281.48195
G1 X132.230 Y128.310 E293.20101
G1 X132.230 Y129.430 E293.35076
G1 X69.138 Y66.338 E305.28160
G1 X68.018 Y66.338 E305.43136
G1 X132.230 Y130.550 E317.57399
G1 X132.230 Y131.670 E317.72374
G1 X67.770 Y67.210 E329.91325
G1 X67.770 Y68.330 E330.06301
G1 X132.230 Y132.790 E342.25252
G1 X131.982 Y133.662 E342.37374
G1 X67.770 Y69.450 E354.51636
G1 X67.770 Y70.570 E354.66612
G1 X130.862 Y133.662 E366.59695
G1 X129.742 Y133.662 E366.74671
G1 X67.770 Y71.690 E378.46575
G1 X67.770 Y72.810 E378.61551
G1 X128.622 Y133.662 E390.12277
G1 X127.502 Y133.662 E390.27252
G1 X67.770 Y73.930 E401.56800
G1 X67.770 Y75.050 E401.71775
G1 X126.382 Y133.662 E412.80144
G1 X125.262 Y133.662 E412.95119
G1 X67.770 Y76.170 E423.82309
G1 X67.770 Y77.290 E423.97285
G1 X124.142 Y133.662 E434.63296
G1 X123.022 Y133.662 E434.78272
G1 X67.770 Y78.410 E445.23104
G1 X67.770 Y79.530 E445.38080
G1 X121.902 Y133.662 E455.61734
G1 X120.782 Y133.662 E455.76709
G1 X67.770 Y80.650 E465.79184
G1 X67.770 Y81.770 E465.94160
G1 X70.705 Y84.704 E466.49656
G1 X69.379 Y84.498 E466.67602
G1 X67.770 Y82.890 E466.98019
G1 X67.770 Y84.010 E467.12995
G1 X68.362 Y84.602 E467.24193
G1 X73.663 Y87.663 F9000.000
G1 X119.662 Y133.662 E475.94049 F1080.000
G1 X118.542 Y133.662 E476.09025
G1 X73.816 Y88.935 E484.54814
G1 X73.676 Y89.915 E484.68050
G1 X117.422 Y133.662 E492.95308
G1 X116.302 Y133.662 E493.10283
G1 X73.368 Y90.727 E501.22184
G1 X72.970 Y91.450 E501.33208
G1 X115.183 Y133.662 E509.31454
G1 X114.063 Y133.662 E509.46430
G1 X72.461 Y92.061 E517.33120
G1 X71.843 Y92.562 E517.43767
G1 X112.943 Y133.662 E525.20968
G1 X111.823 Y133.662 E525.35944
G1 X71.157 Y92.996 E533.04941
G1 X70.347 Y93.307 E533.16536
G1 X110.703 Y133.662 E540.79667
G1 X109.583 Y133.662 E540.94642
G1 X69.387 Y93.466 E548.54754
G1 X68.225 Y93.424 E548.70301
G1 X108.463 Y133.662 E556.31205
G1 X107.343 Y133.662 E556.46181
G1 X67.770 Y94.089 E563.94512
G1 X67.770 Y95.209 E564.09488
G1 X106.223 Y133.662 E571.36640
G1 X105.103 Y133.662 E571.51615
G1 X67.770 Y96.329 E578.57589
G1 X67.770 Y97.449 E578.72565
G1 X103.983 Y133.662 E585.57359
G1 X102.863 Y133.662 E585.72335
G1 X67.770 Y98.569 E592.35951
G1 X67.770 Y99.689 E592.50927
G1 X101.743 Y133.662 E598.93364
G1 X100.623 Y133.662 E599.08340
G1 X67.770 Y100.809 E605.29599
G1 X67.770 Y101.929 E605.44574
G1 X72.557 Y106.716 E606.35096
G1 X71.326 Y106.605 E606.51626
G1 X67.770 Y103.049 E607.18867
G1 X67.770 Y104.169 E607.33842
G1 X70.326 Y106.725 E607.82179
G1 X69.511 Y107.030 E607.93815
G1 X67.770 Y105.289 E608.26739
G1 X67.770 Y106.409 E608.41715
G1 X68.793 Y107.431 E608.61057
G1 X68.151 Y107.909 E608.71761
G1 X67.770 Y107.529 E608.78953
G1 X131.640 Y115.400 F9000.000
G1 X132.230 Y115.990 E608.90114 F1080.000
G1 X132.230 Y117.110 E609.05090
G1 X130.628 Y115.509 E609.35382
G1 X129.297 Y115.298 E609.53400
G1 X132.230 Y118.230 E610.08859
G1 X132.230 Y119.350 E610.23835
G1 X79.218 Y66.338 E620.26311
G1 X80.338 Y66.338 E620.41286
G1 X126.339 Y112.339 E629.11181
G1 X126.186 Y111.067 E629.28323
G1 X81.458 Y66.338 E637.74149
G1 X82.578 Y66.338 E637.89125
G1 X126.326 Y110.087 E646.16421
G1 X126.634 Y109.275 E646.28034
G1 X83.697 Y66.338 E654.39973
G1 X84.817 Y66.338 E654.54948
G1 X127.032 Y108.553 E662.53234
G1 X127.540 Y107.941 E662.63869
G1 X85.937 Y66.338 E670.50587
G1 X87.057 Y66.338 E670.65562
