; generated by Slic3r 0.9.10b on 2015-02-21 at 19:06:31

; layer_height = 0.2937
; perimeters = 3
; top_solid_layers = 3
; bottom_solid_layers = 3
; fill_density = .3
; perimeter_speed = 30
; infill_speed = 60
; travel_speed = 130
; nozzle_diameter = .4
; filament_diameter = 1.73
; extrusion_multiplier = 1
; perimeters extrusion width = 0.44mm
; infill extrusion width = 0.44mm
; solid infill extrusion width = 0.44mm
; top infill extrusion width = 0.44mm
; first layer extrusion width = 0.87mm

G21 ; set units to millimeters
M107
G21 ;SET TO MM
G91 ;SET TO REL
G1 Z5;GO UP 10
G28 X0 YO
G90 ;SET TO ABSOLUTE
G1 X100 Y100 F1100 ;GO TO CENTER
G28 Z0
G1 Z5
G90 ; use absolute coordinates
G92 E0
M82 ; use absolute distances for extrusion
G1 F1800.000 E-0.10000
G1 Z0.691 F7800.000
G92 E0
G1 X78.100 Y78.100
G1 Z0.397
G1 F1800.000 E0.10000
G1 X78.770 Y77.520 F540.000 E0.21791
G1 X84.360 Y73.230 E1.15546
G1 X85.100 Y72.730 E1.27429
G1 X85.900 Y72.340 E1.39271
G1 X92.420 Y69.650 E2.33116
G1 X93.260 Y69.360 E2.44939
G1 X94.120 Y69.190 E2.56603
G1 X101.100 Y68.270 E3.50278
G1 X101.990 Y68.210 E3.62147
G1 X102.880 Y68.270 E3.74016
G1 X109.870 Y69.190 E4.67823
G1 X110.730 Y69.360 E4.79487
G1 X111.570 Y69.650 E4.91310
G1 X118.080 Y72.340 E5.85032
G1 X118.880 Y72.730 E5.96874
G1 X119.620 Y73.220 E6.08683
G1 X125.220 Y77.510 E7.02544
G1 X125.890 Y78.100 E7.14422
G1 X126.470 Y78.770 E7.26213
G1 X130.760 Y84.360 E8.19969
G1 X131.260 Y85.100 E8.31851
G1 X131.650 Y85.890 E8.43574
G1 X134.080 Y91.760 E9.28104
G1 X134.370 Y92.490 E9.38555
G1 X134.640 Y93.290 E9.49790
G1 X134.800 Y94.120 E9.61036
G1 X135.720 Y101.100 E10.54711
G1 X135.780 Y101.990 E10.66580
G1 X135.720 Y102.880 E10.78449
G1 X134.800 Y109.870 E11.72255
G1 X134.630 Y110.730 E11.83920
G1 X134.350 Y111.570 E11.95701
G1 X131.930 Y117.440 E12.80180
G1 X131.630 Y118.130 E12.90191
G1 X131.250 Y118.900 E13.01616
G1 X130.770 Y119.620 E13.13130
G1 X126.480 Y125.220 E14.06991
G1 X125.890 Y125.890 E14.18869
G1 X125.220 Y126.480 E14.30747
G1 X119.620 Y130.770 E15.24609
G1 X118.900 Y131.250 E15.36122
G1 X118.130 Y131.630 E15.47547
G1 X117.440 Y131.930 E15.57558
G1 X111.570 Y134.350 E16.42038
G1 X110.730 Y134.630 E16.53819
G1 X109.870 Y134.800 E16.65483
G1 X102.880 Y135.720 E17.59290
G1 X101.990 Y135.780 E17.71158
G1 X101.100 Y135.720 E17.83027
G1 X94.120 Y134.800 E18.76702
G1 X93.290 Y134.640 E18.87949
G1 X92.490 Y134.370 E18.99183
G1 X91.760 Y134.080 E19.09634
G1 X85.890 Y131.650 E19.94164
G1 X85.100 Y131.260 E20.05887
G1 X84.360 Y130.760 E20.17770
G1 X78.770 Y126.470 E21.11525
G1 X78.100 Y125.890 E21.23316
G1 X77.510 Y125.220 E21.35194
G1 X73.220 Y119.620 E22.29056
G1 X72.730 Y118.880 E22.40864
G1 X72.340 Y118.080 E22.52706
G1 X69.650 Y111.570 E23.46428
G1 X69.360 Y110.730 E23.58252
G1 X69.190 Y109.870 E23.69916
G1 X68.270 Y102.880 E24.63722
G1 X68.210 Y101.990 E24.75591
G1 X68.270 Y101.100 E24.87460
G1 X69.190 Y94.120 E25.81135
G1 X69.360 Y93.260 E25.92799
G1 X69.650 Y92.420 E26.04623
G1 X72.340 Y85.900 E26.98467
G1 X72.730 Y85.100 E27.10309
G1 X73.230 Y84.360 E27.22192
G1 X77.520 Y78.770 E28.15947
G1 X78.023 Y78.189 E28.26165
G1 F1800.000 E28.16165
G1 Z0.691 F7800.000
G92 E0
G1 X81.442 Y81.588
G1 Z0.397
G1 F1800.000 E0.10000
G1 X81.627 Y81.408 F540.000 E0.13433
G1 X87.383 Y76.992 E1.09963
G1 X87.651 Y76.837 E1.14081
G1 X94.353 Y74.060 E2.10611
G1 X94.602 Y73.990 E2.14045
G1 X101.897 Y73.030 E3.11945
G1 X102.155 Y73.033 E3.15378
G1 X109.348 Y73.980 E4.11908
G1 X109.647 Y74.060 E4.16026
G1 X116.349 Y76.837 E5.12556
G1 X116.574 Y76.963 E5.15990
G1 X122.412 Y81.442 E6.13890
G1 X122.592 Y81.627 E6.17323
G1 X127.008 Y87.383 E7.13853
G1 X127.163 Y87.651 E7.17971
G1 X129.940 Y94.353 E8.14501
G1 X130.010 Y94.602 E8.17934
G1 X130.970 Y101.897 E9.15834
G1 X130.967 Y102.155 E9.19268
G1 X130.020 Y109.348 E10.15798
G1 X129.940 Y109.647 E10.19916
G1 X127.163 Y116.349 E11.16446
G1 X127.037 Y116.574 E11.19879
G1 X122.558 Y122.412 E12.17779
G1 X122.373 Y122.592 E12.21213
G1 X116.617 Y127.008 E13.17743
G1 X116.349 Y127.163 E13.21861
G1 X109.647 Y129.940 E14.18391
G1 X109.398 Y130.010 E14.21824
G1 X102.103 Y130.970 E15.19724
G1 X101.845 Y130.967 E15.23158
G1 X94.652 Y130.020 E16.19688
G1 X94.353 Y129.940 E16.23806
G1 X87.651 Y127.163 E17.20336
G1 X87.426 Y127.037 E17.23769
G1 X81.588 Y122.558 E18.21669
G1 X81.408 Y122.373 E18.25102
G1 X76.992 Y116.617 E19.21632
G1 X76.837 Y116.349 E19.25750
G1 X74.060 Y109.647 E20.22280
G1 X73.990 Y109.398 E20.25714
G1 X73.030 Y102.103 E21.23614
G1 X73.033 Y101.845 E21.27047
G1 X73.980 Y94.652 E22.23577
G1 X74.060 Y94.353 E22.27695
G1 X76.860 Y87.604 E23.24910
G1 X76.992 Y87.383 E23.28344
G1 X81.368 Y81.680 E24.23987
G1 X82.002 Y82.148 F7800.000
G1 X82.148 Y82.002 F540.000 E24.26731
G1 X87.821 Y77.648 E25.21887
G1 X88.000 Y77.545 E25.24630
G1 X94.607 Y74.808 E26.19786
G1 X94.756 Y74.765 E26.21845
G1 X101.948 Y73.818 E27.18371
G1 X102.103 Y73.821 E27.20430
G1 X109.194 Y74.755 E28.15585
G1 X109.393 Y74.808 E28.18329
G1 X116.000 Y77.545 E29.13485
G1 X116.136 Y77.619 E29.15544
G1 X121.891 Y82.036 E30.12069
G1 X121.998 Y82.148 E30.14129
G1 X126.352 Y87.821 E31.09284
G1 X126.455 Y88.000 E31.12028
G1 X129.192 Y94.607 E32.07183
G1 X129.235 Y94.756 E32.09243
G1 X130.182 Y101.948 E33.05768
G1 X130.179 Y102.103 E33.07827
G1 X129.245 Y109.194 E34.02983
G1 X129.192 Y109.393 E34.05727
G1 X126.455 Y116.000 E35.00882
G1 X126.381 Y116.136 E35.02941
G1 X121.964 Y121.891 E35.99467
G1 X121.852 Y121.998 E36.01526
G1 X116.179 Y126.352 E36.96682
G1 X116.000 Y126.455 E36.99425
G1 X109.393 Y129.192 E37.94581
G1 X109.244 Y129.235 E37.96640
G1 X102.052 Y130.182 E38.93166
G1 X101.897 Y130.179 E38.95225
G1 X94.806 Y129.245 E39.90381
G1 X94.607 Y129.192 E39.93124
G1 X88.000 Y126.455 E40.88280
G1 X87.864 Y126.381 E40.90339
G1 X82.109 Y121.964 E41.86865
G1 X82.002 Y121.852 E41.88924
G1 X77.648 Y116.179 E42.84079
G1 X77.545 Y116.000 E42.86823
G1 X74.808 Y109.393 E43.81979
G1 X74.765 Y109.244 E43.84038
G1 X73.818 Y102.052 E44.80563
G1 X73.821 Y101.897 E44.82622
G1 X74.755 Y94.806 E45.77778
G1 X74.808 Y94.607 E45.80522
G1 X77.568 Y87.954 E46.76362
G1 X77.648 Y87.821 E46.78421
G1 X81.930 Y82.241 E47.72004
G1 X82.595 Y82.668 F7800.000
G1 X82.668 Y82.595 F540.000 E47.73379
G1 X88.260 Y78.305 E48.67155
G1 X88.349 Y78.253 E48.68529
G1 X94.861 Y75.556 E49.62305
G1 X94.961 Y75.529 E49.63680
G1 X101.948 Y74.609 E50.57456
G1 X102.052 Y74.609 E50.58830
G1 X109.039 Y75.529 E51.52606
G1 X109.139 Y75.556 E51.53980
G1 X115.651 Y78.253 E52.47756
G1 X115.740 Y78.305 E52.49131
G1 X121.332 Y82.595 E53.42907
G1 X121.405 Y82.668 E53.44281
G1 X125.695 Y88.260 E54.38057
G1 X125.747 Y88.349 E54.39432
G1 X128.444 Y94.861 E55.33208
G1 X128.471 Y94.961 E55.34582
G1 X129.391 Y101.948 E56.28358
G1 X129.391 Y102.052 E56.29732
G1 X128.471 Y109.039 E57.23508
G1 X128.444 Y109.139 E57.24883
G1 X125.747 Y115.651 E58.18659
G1 X125.695 Y115.740 E58.20033
G1 X121.405 Y121.332 E59.13809
G1 X121.332 Y121.405 E59.15184
G1 X115.740 Y125.695 E60.08960
G1 X115.651 Y125.747 E60.10334
G1 X109.139 Y128.444 E61.04110
G1 X109.039 Y128.471 E61.05484
G1 X102.052 Y129.391 E61.99260
G1 X101.948 Y129.391 E62.00635
G1 X94.961 Y128.471 E62.94411
G1 X94.861 Y128.444 E62.95785
G1 X88.349 Y125.747 E63.89561
G1 X88.260 Y125.695 E63.90936
G1 X82.668 Y121.405 E64.84712
G1 X82.595 Y121.332 E64.86086
G1 X78.305 Y115.740 E65.79862
G1 X78.253 Y115.651 E65.81236
G1 X75.556 Y109.139 E66.75012
G1 X75.529 Y109.039 E66.76387
G1 X74.609 Y102.052 E67.70163
G1 X74.609 Y101.948 E67.71537
G1 X75.529 Y94.961 E68.65313
G1 X75.556 Y94.861 E68.66688
G1 X78.253 Y88.349 E69.60464
G1 X78.305 Y88.260 E69.61838
G1 X82.523 Y82.762 E70.54041
G1 X83.189 Y83.189 F7800.000
G1 X88.699 Y78.961 F378.000 E71.46443
G1 X95.115 Y76.304 E72.38845
G1 X102.000 Y75.397 E73.31246
G1 X108.885 Y76.304 E74.23648
G1 X115.301 Y78.961 E75.16049
G1 X120.811 Y83.189 E76.08451
G1 X125.039 Y88.699 E77.00852
G1 X127.448 Y94.517 E77.84639
G1 X127.696 Y95.115 E77.93254
G1 X128.603 Y102.000 E78.85656
G1 X127.696 Y108.885 E79.78057
G1 X125.286 Y114.703 E80.61843
G1 X125.039 Y115.301 E80.70459
G1 X120.811 Y120.811 E81.62860
G1 X115.301 Y125.039 E82.55262
G1 X114.703 Y125.286 E82.63877
G1 X108.885 Y127.696 E83.47664
G1 X102.000 Y128.603 E84.40065
G1 X95.115 Y127.696 E85.32467
G1 X94.517 Y127.448 E85.41082
G1 X88.699 Y125.039 E86.24868
G1 X83.189 Y120.811 E87.17270
G1 X78.961 Y115.301 E88.09671
G1 X76.304 Y108.885 E89.02073
G1 X75.397 Y102.000 E89.94475
G1 X76.304 Y95.115 E90.86876
G1 X78.961 Y88.699 E91.79278
G1 X83.117 Y83.283 E92.70107
G1 X83.941 Y83.426 F7800.000
G1 X84.183 Y83.420
G1 X89.096 Y79.650 F540.000 E93.52513
G1 X95.320 Y77.072 E94.42154
G1 X102.000 Y76.192 E95.31794
G1 X108.680 Y77.072 E96.21435
G1 X114.904 Y79.650 E97.11076
G1 X120.249 Y83.751 E98.00717
G1 X124.350 Y89.096 E98.90358
G1 X126.720 Y94.818 E99.72764
G1 X126.928 Y95.320 E99.79999
G1 X127.808 Y102.000 E100.69640
G1 X126.928 Y108.680 E101.59281
G1 X124.558 Y114.402 E102.41687
G1 X124.350 Y114.904 E102.48922
G1 X120.249 Y120.249 E103.38563
G1 X114.904 Y124.350 E104.28204
G1 X114.402 Y124.558 E104.35439
G1 X108.680 Y126.928 E105.17844
G1 X102.000 Y127.808 E106.07485
G1 X95.320 Y126.928 E106.97126
G1 X94.818 Y126.720 E107.04361
G1 X89.096 Y124.350 E107.86767
G1 X83.751 Y120.249 E108.76408
G1 X79.650 Y114.904 E109.66049
G1 X77.072 Y108.680 E110.55690
G1 X76.192 Y102.000 E111.45331
G1 X77.072 Y95.320 E112.34972
G1 X79.650 Y89.096 E113.24613
G1 X83.751 Y83.751 E114.14254
G1 X84.089 Y83.492 E114.19916
G1 X84.662 Y84.045 F7800.000
G1 X89.494 Y80.338 F540.000 E115.00941
G1 X95.526 Y77.839 E115.87822
G1 X102.000 Y76.987 E116.74702
G1 X108.474 Y77.839 E117.61582
G1 X114.506 Y80.338 E118.48462
G1 X119.687 Y84.313 E119.35343
G1 X123.662 Y89.493 E120.22223
G1 X126.161 Y95.526 E121.09103
G1 X127.013 Y102.000 E121.95983
G1 X126.161 Y108.474 E122.82864
G1 X123.830 Y114.100 E123.63889
G1 X123.662 Y114.506 E123.69744
G1 X119.687 Y119.687 E124.56624
G1 X114.506 Y123.662 E125.43504
G1 X114.100 Y123.830 E125.49359
G1 X108.474 Y126.161 E126.30384
G1 X102.000 Y127.013 E127.17265
G1 X95.526 Y126.161 E128.04145
G1 X89.493 Y123.662 E128.91025
G1 X84.313 Y119.687 E129.77905
G1 X80.338 Y114.506 E130.64786
G1 X77.839 Y108.474 E131.51666
G1 X76.987 Y102.000 E132.38546
G1 X77.839 Y95.526 E133.25426
G1 X80.338 Y89.494 E134.12307
G1 X84.313 Y84.313 E134.99187
G1 X84.568 Y84.117 E135.03469
G1 F1800.000 E134.93469
G1 Z0.691 F7800.000
G92 E0
G1 X90.754 Y93.765
G1 Z0.397
G1 F1800.000 E0.10000
G1 X92.701 Y94.015 F540.000 E0.36125
G1 X94.250 Y93.806 E0.56920
G1 X95.692 Y93.204 E0.77715
G1 X96.929 Y92.248 E0.98511
G1 X97.877 Y91.005 E1.19306
G1 X98.470 Y89.559 E1.40101
G1 X98.657 Y88.103 E1.59629
G1 X99.917 Y89.064 E1.80707
G1 X101.363 Y89.657 E2.01503
G1 X102.913 Y89.856 E2.22298
G1 X104.462 Y89.647 E2.43093
G1 X105.904 Y89.044 E2.63889
G1 X106.711 Y88.420 E2.77468
G1 X106.894 Y89.776 E2.95674
G1 X107.497 Y91.218 E3.16470
G1 X108.453 Y92.455 E3.37265
G1 X109.696 Y93.403 E3.58060
G1 X111.142 Y93.996 E3.78855
G1 X112.692 Y94.195 E3.99651
G1 X114.200 Y93.991 E4.19904
G1 X113.564 Y94.827 E4.33882
G1 X112.970 Y96.273 E4.54677
G1 X112.771 Y97.823 E4.75472
G1 X112.980 Y99.372 E4.96268
G1 X113.583 Y100.814 E5.17062
G1 X114.539 Y102.051 E5.37858
G1 X115.755 Y102.978 E5.58204
G1 X114.889 Y103.340 E5.70688
G1 X113.652 Y104.295 E5.91484
G1 X112.705 Y105.538 E6.12279
G1 X112.111 Y106.984 E6.33074
G1 X111.912 Y108.534 E6.53870
G1 X112.121 Y110.083 E6.74665
G1 X112.378 Y110.697 E6.83516
G1 X110.525 Y110.947 E7.08396
G1 X109.083 Y111.550 E7.29191
G1 X107.846 Y112.505 E7.49986
G1 X106.899 Y113.748 E7.70781
G1 X106.129 Y115.624 E7.97767
G1 X104.753 Y114.576 E8.20787
G1 X103.307 Y113.982 E8.41581
G1 X101.757 Y113.783 E8.62377
G1 X100.208 Y113.992 E8.83172
G1 X98.766 Y114.595 E9.03967
G1 X97.658 Y115.451 E9.22591
G1 X97.531 Y114.507 E9.35261
G1 X96.928 Y113.065 E9.56057
G1 X95.972 Y111.828 E9.76852
G1 X94.729 Y110.881 E9.97647
G1 X93.283 Y110.288 E10.18443
G1 X91.450 Y110.052 E10.43044
G1 X91.685 Y109.480 E10.51280
G1 X91.884 Y107.929 E10.72075
G1 X91.674 Y106.380 E10.92870
G1 X91.072 Y104.938 E11.13666
G1 X90.116 Y103.702 E11.34461
G1 X89.141 Y102.958 E11.50781
G1 X90.519 Y101.893 E11.73962
G1 X91.467 Y100.650 E11.94757
G1 X92.060 Y99.204 E12.15552
G1 X92.259 Y97.654 E12.36347
G1 X92.050 Y96.105 E12.57143
G1 X91.447 Y94.663 E12.77938
G1 X90.826 Y93.859 E12.91455
G1 F1800.000 E12.81455
G1 Z0.691 F7800.000
G92 E0
G1 X99.565 Y115.969
G1 Z0.397
G1 F1800.000 E0.10000
G1 X100.624 Y115.526 F540.000 E0.25274
G1 X101.762 Y115.373 E0.40548
G1 X102.900 Y115.519 E0.55822
G1 X103.962 Y115.955 E0.71096
G1 X104.752 Y116.557 E0.84301
G1 X104.875 Y116.651 E0.86370
G1 X105.577 Y117.559 E1.01644
G1 X106.020 Y118.618 E1.16918
G1 X106.173 Y119.756 E1.32192
G1 X106.027 Y120.895 E1.47466
G1 X105.591 Y121.957 E1.62740
G1 X105.497 Y122.080 E1.64808
G1 X104.896 Y122.870 E1.78014
G1 X103.987 Y123.571 E1.93287
G1 X102.928 Y124.014 E2.08561
G1 X101.790 Y124.168 E2.23835
G1 X100.652 Y124.022 E2.39109
G1 X99.590 Y123.586 E2.54383
G1 X98.800 Y122.984 E2.67588
G1 X98.677 Y122.890 E2.69657
G1 X97.975 Y121.981 E2.84931
G1 X97.532 Y120.922 E3.00205
G1 X97.379 Y119.785 E3.15479
G1 X97.525 Y118.646 E3.30753
G1 X97.961 Y117.584 E3.46027
G1 X98.657 Y116.671 E3.61301
G1 X99.471 Y116.042 E3.75002
G1 X100.231 Y116.390 F7800.000
G1 F1800.000 E3.65002
G1 Z0.691 F7800.000
G92 E0
G1 X96.150 Y116.061
G1 Z0.397
G1 F1800.000 E0.10000
G1 X96.004 Y117.200 F540.000 E0.25274
G1 X95.945 Y117.344 E0.27343
G1 X95.568 Y118.262 E0.40548
G1 X94.872 Y119.175 E0.55822
G1 X93.964 Y119.877 E0.71096
G1 X92.905 Y120.319 E0.86370
G1 X91.767 Y120.473 E1.01644
G1 X90.628 Y120.327 E1.16918
G1 X89.566 Y119.891 E1.32191
G1 X88.653 Y119.195 E1.47466
G1 X87.952 Y118.287 E1.62740
G1 X87.509 Y117.228 E1.78013
G1 X87.355 Y116.090 E1.93287
G1 X87.501 Y114.951 E2.08561
G1 X87.561 Y114.807 E2.10630
G1 X87.937 Y113.889 E2.23835
G1 X88.633 Y112.976 E2.39109
G1 X89.542 Y112.274 E2.54383
G1 X90.601 Y111.832 E2.69657
G1 X91.738 Y111.678 E2.84931
G1 X92.877 Y111.824 E3.00205
G1 X93.795 Y112.201 E3.13410
G1 X93.939 Y112.260 E3.15479
G1 X94.852 Y112.956 E3.30753
G1 X95.554 Y113.864 E3.46027
G1 X95.997 Y114.924 E3.61301
G1 X96.134 Y115.944 E3.75002
G1 X95.452 Y116.427 F7800.000
G1 F1800.000 E3.65002
G1 Z0.691 F7800.000
G92 E0
G1 X89.016 Y111.048
G1 Z0.397
G1 F1800.000 E0.10000
G1 X88.108 Y111.750 F540.000 E0.25274
G1 X87.192 Y112.133 E0.38479
G1 X87.048 Y112.193 E0.40548
G1 X85.911 Y112.346 E0.55822
G1 X84.772 Y112.200 E0.71096
G1 X83.710 Y111.764 E0.86370
G1 X82.797 Y111.068 E1.01644
G1 X82.095 Y110.160 E1.16918
G1 X81.653 Y109.101 E1.32192
G1 X81.499 Y107.963 E1.47466
G1 X81.645 Y106.825 E1.62740
G1 X81.704 Y106.681 E1.64808
G1 X82.081 Y105.763 E1.78014
G1 X82.777 Y104.850 E1.93288
G1 X83.685 Y104.148 E2.08561
G1 X84.745 Y103.705 E2.23835
G1 X85.882 Y103.551 E2.39109
G1 X87.021 Y103.698 E2.54383
G1 X88.083 Y104.133 E2.69657
G1 X88.996 Y104.829 E2.84931
G1 X89.698 Y105.738 E3.00205
G1 X90.140 Y106.797 E3.15479
G1 X90.294 Y107.934 E3.30753
G1 X90.148 Y109.073 E3.46027
G1 X89.712 Y110.135 E3.61301
G1 X89.088 Y110.954 E3.75002
G1 X88.264 Y110.814 F7800.000
G1 F1800.000 E3.65002
G1 Z0.691 F7800.000
G92 E0
G1 X87.424 Y101.917
G1 Z0.397
G1 F1800.000 E0.10000
G1 X86.286 Y102.071 F540.000 E0.25274
G1 X85.302 Y101.944 E0.38479
G1 X85.148 Y101.925 E0.40548
G1 X84.086 Y101.489 E0.55822
G1 X83.173 Y100.793 E0.71096
G1 X83.078 Y100.670 E0.73165
G1 X82.471 Y99.884 E0.86370
G1 X82.028 Y98.825 E1.01644
G1 X81.875 Y97.688 E1.16918
G1 X82.021 Y96.549 E1.32192
G1 X82.457 Y95.487 E1.47466
G1 X83.153 Y94.574 E1.62740
G1 X83.938 Y93.967 E1.75945
G1 X84.061 Y93.872 E1.78014
G1 X85.120 Y93.430 E1.93287
G1 X86.258 Y93.276 E2.08561
G1 X87.242 Y93.402 E2.21767
G1 X87.396 Y93.422 E2.23835
G1 X88.458 Y93.858 E2.39109
G1 X89.371 Y94.554 E2.54383
G1 X90.073 Y95.462 E2.69657
G1 X90.516 Y96.521 E2.84931
G1 X90.670 Y97.659 E3.00205
G1 X90.523 Y98.798 E3.15479
G1 X90.088 Y99.860 E3.30753
G1 X89.392 Y100.773 E3.46027
G1 X88.483 Y101.474 E3.61301
G1 X87.533 Y101.872 E3.75002
G1 X86.890 Y101.338 F7800.000
