; generated by Slic3r 0.9.10b on 2015-03-21 at 13:50:15

; layer_height = 0.2937
; perimeters = 3
; top_solid_layers = 3
; bottom_solid_layers = 3
; fill_density = .3
; perimeter_speed = 30
; infill_speed = 60
; travel_speed = 130
; nozzle_diameter = .4
; filament_diameter = 1.73
; extrusion_multiplier = 1
; perimeters extrusion width = 0.44mm
; infill extrusion width = 0.44mm
; solid infill extrusion width = 0.44mm
; top infill extrusion width = 0.44mm
; first layer extrusion width = 0.87mm

G21 ; set units to millimeters
M107
G21 ;SET TO MM
G91 ;SET TO REL
G1 Z5;GO UP 10
G28 X0 YO
G90 ;SET TO ABSOLUTE
G1 X100 Y100 F1100 ;GO TO CENTER
G28 Z0
G1 Z5
G90 ; use absolute coordinates
G92 E0
M82 ; use absolute distances for extrusion
G1 F1800.000 E-0.10000
G1 Z0.691 F7800.000
G92 E0
G1 X71.920 Y66.950
G1 Z0.397
G1 F1800.000 E0.10000
G1 X73.680 Y65.050 F540.000 E0.44460
G1 X74.050 Y64.680 E0.51422
G1 X75.950 Y62.920 E0.85882
G1 X76.370 Y62.560 E0.93242
G1 X78.410 Y60.960 E1.27737
G1 X78.820 Y60.660 E1.34497
G1 X80.970 Y59.220 E1.68927
G1 X81.420 Y58.940 E1.75979
G1 X83.680 Y57.670 E2.10472
G1 X84.150 Y57.430 E2.17493
G1 X86.500 Y56.340 E2.51961
G1 X87.030 Y56.120 E2.59596
G1 X89.470 Y55.230 E2.94153
G1 X89.960 Y55.080 E3.00972
G1 X92.950 Y54.250 E3.42259
G1 X95.490 Y53.740 E3.76729
G1 X98.760 Y53.350 E4.20546
G1 X99.280 Y53.310 E4.27486
G1 X101.740 Y53.220 E4.60239
G1 X102.230 Y53.220 E4.66758
G1 X104.820 Y53.310 E5.01240
G1 X105.390 Y53.350 E5.08843
G1 X107.970 Y53.660 E5.43418
G1 X108.500 Y53.740 E5.50550
G1 X111.040 Y54.250 E5.85020
G1 X114.030 Y55.080 E6.26307
G1 X114.520 Y55.240 E6.33166
G1 X116.950 Y56.130 E6.67598
G1 X117.470 Y56.340 E6.75060
G1 X119.830 Y57.430 E7.09648
G1 X120.310 Y57.670 E7.16788
G1 X122.570 Y58.940 E7.51281
G1 X123.020 Y59.220 E7.58333
G1 X125.170 Y60.660 E7.92763
G1 X125.590 Y60.970 E7.99709
G1 X127.620 Y62.570 E8.34100
G1 X128.020 Y62.910 E8.41085
G1 X129.930 Y64.670 E8.75642
G1 X130.310 Y65.050 E8.82793
G1 X132.070 Y66.950 E9.17252
G1 X132.430 Y67.370 E9.24612
G1 X134.030 Y69.410 E9.59108
G1 X134.330 Y69.820 E9.65868
G1 X135.770 Y71.970 E10.00298
G1 X136.050 Y72.420 E10.07350
G1 X137.320 Y74.680 E10.41842
G1 X137.570 Y75.180 E10.49280
G1 X138.650 Y77.530 E10.83692
G1 X138.850 Y78.010 E10.90611
G1 X139.750 Y80.450 E11.25214
G1 X139.910 Y80.960 E11.32326
G1 X140.740 Y83.950 E11.73613
G1 X141.250 Y86.490 E12.08084
G1 X141.330 Y87.040 E12.15479
G1 X141.630 Y89.610 E12.49906
G1 X141.670 Y90.110 E12.56580
G1 X141.790 Y92.990 E12.94932
G1 X141.790 Y144.000 E19.73640
G1 X141.660 Y145.320 E19.91289
G1 X141.270 Y146.600 E20.09092
G1 X140.640 Y147.770 E20.26773
G1 X139.800 Y148.800 E20.44457
G1 X138.770 Y149.640 E20.62141
G1 X137.600 Y150.270 E20.79822
G1 X136.320 Y150.660 E20.97626
G1 X135.000 Y150.790 E21.15274
G1 X69.000 Y150.790 E29.93430
G1 X67.680 Y150.660 E30.11078
G1 X66.400 Y150.270 E30.28882
G1 X65.230 Y149.640 E30.46563
G1 X64.200 Y148.800 E30.64247
G1 X63.360 Y147.770 E30.81931
G1 X62.730 Y146.600 E30.99612
G1 X62.340 Y145.320 E31.17416
G1 X62.210 Y144.000 E31.35064
G1 X62.210 Y92.990 E38.13772
G1 X62.310 Y90.160 E38.51450
G1 X62.350 Y89.590 E38.59052
G1 X62.660 Y87.020 E38.93495
G1 X62.740 Y86.490 E39.00627
G1 X63.250 Y83.950 E39.35097
G1 X64.230 Y80.470 E39.83201
G1 X65.120 Y78.030 E40.17758
G1 X65.340 Y77.500 E40.25393
G1 X66.430 Y75.150 E40.59861
G1 X66.670 Y74.680 E40.66882
G1 X67.940 Y72.420 E41.01375
G1 X68.220 Y71.970 E41.08427
G1 X69.660 Y69.820 E41.42857
G1 X69.960 Y69.410 E41.49617
G1 X71.560 Y67.370 E41.84112
G1 X71.843 Y67.040 E41.89900
G1 F1800.000 E41.79900
G1 Z0.691 F7800.000
G92 E0
G1 X75.438 Y70.254
G1 Z0.397
G1 F1800.000 E0.10000
G1 X77.293 Y68.249 F540.000 E0.46350
G1 X79.254 Y66.438 E0.81866
G1 X81.469 Y64.690 E1.19401
G1 X83.766 Y63.158 E1.56141
G1 X86.149 Y61.827 E1.92458
G1 X88.573 Y60.708 E2.27983
G1 X91.238 Y59.726 E2.65777
G1 X93.866 Y58.989 E3.02088
G1 X96.483 Y58.468 E3.37589
G1 X99.358 Y58.133 E3.76100
G1 X102.028 Y58.030 E4.11660
G1 X104.789 Y58.140 E4.48425
G1 X107.501 Y58.465 E4.84768
G1 X110.132 Y58.989 E5.20455
G1 X112.848 Y59.755 E5.58002
G1 X115.411 Y60.702 E5.94353
G1 X117.835 Y61.820 E6.29880
G1 X120.298 Y63.199 E6.67432
G1 X122.592 Y64.736 E7.04170
G1 X124.732 Y66.428 E7.40474
G1 X126.693 Y68.238 E7.75984
G1 X128.620 Y70.324 E8.13766
G1 X130.308 Y72.469 E8.50079
G1 X131.832 Y74.753 E8.86613
G1 X133.171 Y77.149 E9.23136
G1 X134.320 Y79.645 E9.59699
G1 X135.248 Y82.164 E9.95420
G1 X135.996 Y84.806 E10.31951
G1 X136.533 Y87.498 E10.68469
G1 X136.859 Y90.224 E11.05002
G1 X136.970 Y92.982 E11.41736
G1 X136.970 Y144.646 E18.29144
G1 X136.850 Y144.936 E18.33315
G1 X135.936 Y145.850 E18.50515
G1 X135.646 Y145.970 E18.54686
G1 X68.354 Y145.970 E27.50042
G1 X68.064 Y145.850 E27.54213
G1 X67.150 Y144.936 E27.71413
G1 X67.030 Y144.646 E27.75584
G1 X67.030 Y92.983 E34.62988
G1 X67.140 Y90.209 E34.99928
G1 X67.465 Y87.497 E35.36272
G1 X68.004 Y84.807 E35.72773
G1 X68.750 Y82.165 E36.09300
G1 X69.678 Y79.645 E36.45026
G1 X70.827 Y77.149 E36.81589
G1 X72.166 Y74.753 E37.18112
G1 X73.690 Y72.469 E37.54646
G1 X75.362 Y70.345 E37.90610
G1 X75.987 Y70.824 F7800.000
G1 X77.851 Y68.806 F540.000 E38.27154
G1 X79.789 Y67.017 E38.62251
G1 X81.882 Y65.364 E38.97738
G1 X84.125 Y63.862 E39.33653
G1 X86.507 Y62.529 E39.69970
G1 X88.903 Y61.424 E40.05085
G1 X91.408 Y60.500 E40.40606
G1 X94.035 Y59.759 E40.76924
G1 X96.685 Y59.234 E41.12866
G1 X99.433 Y58.918 E41.49673
G1 X101.983 Y58.818 E41.83624
G1 X104.696 Y58.923 E42.19756
G1 X107.378 Y59.244 E42.55689
G1 X109.993 Y59.766 E42.91169
G1 X112.531 Y60.480 E43.26255
G1 X115.109 Y61.430 E43.62808
G1 X117.505 Y62.536 E43.97920
G1 X119.833 Y63.838 E44.33414
G1 X122.103 Y65.355 E44.69741
G1 X124.186 Y66.997 E45.05026
G1 X126.147 Y68.806 E45.40531
G1 X128.011 Y70.824 E45.77075
G1 X129.661 Y72.920 E46.12567
G1 X131.152 Y75.151 E46.48277
G1 X132.462 Y77.493 E46.83978
G1 X133.574 Y79.903 E47.19297
G1 X134.503 Y82.422 E47.55021
G1 X135.234 Y85.005 E47.90733
G1 X135.757 Y87.636 E48.26425
G1 X136.074 Y90.286 E48.61934
G1 X136.182 Y92.990 E48.97945
G1 X136.182 Y144.320 E55.80907
G1 X136.062 Y144.610 E55.85078
G1 X135.610 Y145.062 E55.93592
G1 X135.320 Y145.182 E55.97763
G1 X68.680 Y145.182 E64.84433
G1 X68.390 Y145.062 E64.88604
G1 X67.938 Y144.610 E64.97118
G1 X67.818 Y144.320 E65.01289
G1 X67.818 Y92.990 E71.84249
G1 X67.924 Y90.286 E72.20259
G1 X68.241 Y87.635 E72.55778
G1 X68.766 Y85.005 E72.91463
G1 X69.485 Y82.452 E73.26756
G1 X70.412 Y79.932 E73.62480
G1 X71.536 Y77.493 E73.98215
G1 X72.846 Y75.151 E74.33916
G1 X74.337 Y72.920 E74.69626
G1 X75.914 Y70.917 E75.03545
G1 X76.597 Y71.324 F7800.000
G1 X78.397 Y69.375 F540.000 E75.38851
G1 X80.301 Y67.617 E75.73331
G1 X82.358 Y65.993 E76.08205
G1 X84.563 Y64.518 E76.43502
G1 X86.851 Y63.238 E76.78379
G1 X89.234 Y62.140 E77.13288
G1 X91.666 Y61.244 E77.47772
G1 X94.189 Y60.533 E77.82657
G1 X96.791 Y60.015 E78.17954
G1 X99.493 Y59.704 E78.54148
G1 X101.983 Y59.606 E78.87296
G1 X104.635 Y59.709 E79.22605
G1 X107.239 Y60.020 E79.57504
G1 X109.809 Y60.533 E79.92371
G1 X112.303 Y61.235 E80.26844
G1 X114.793 Y62.152 E80.62156
G1 X117.147 Y63.238 E80.96649
G1 X119.435 Y64.518 E81.31526
G1 X121.640 Y65.993 E81.66823
G1 X123.697 Y67.617 E82.01697
G1 X125.601 Y69.375 E82.36177
G1 X127.401 Y71.324 E82.71483
G1 X129.024 Y73.383 E83.06360
G1 X130.480 Y75.563 E83.41246
G1 X131.760 Y77.851 E83.76123
G1 X132.846 Y80.205 E84.10616
G1 X133.754 Y82.666 E84.45516
G1 X134.467 Y85.189 E84.80405
G1 X134.978 Y87.759 E85.15274
G1 X135.289 Y90.363 E85.50170
G1 X135.394 Y92.998 E85.85251
G1 X135.394 Y143.932 E92.62953
G1 X134.932 Y144.394 E92.71639
G1 X69.068 Y144.394 E101.47996
G1 X68.606 Y143.932 E101.56681
G1 X68.606 Y92.998 E108.34384
G1 X68.709 Y90.363 E108.69464
G1 X69.020 Y87.759 E109.04363
G1 X69.533 Y85.189 E109.39230
G1 X70.244 Y82.666 E109.74115
G1 X71.140 Y80.234 E110.08600
G1 X72.238 Y77.851 E110.43508
G1 X73.518 Y75.563 E110.78385
G1 X74.974 Y73.383 E111.13272
G1 X76.523 Y71.417 E111.46575
G1 X77.206 Y71.824 F7800.000
G1 X78.943 Y69.943 F378.000 E111.80643
G1 X80.824 Y68.206 E112.14711
G1 X82.834 Y66.621 E112.48767
G1 X84.962 Y65.198 E112.82829
G1 X87.195 Y63.947 E113.16884
G1 X89.521 Y62.874 E113.50964
G1 X91.924 Y61.989 E113.85035
G1 X94.388 Y61.295 E114.19098
G1 X96.898 Y60.795 E114.53149
G1 X99.441 Y60.493 E114.87223
G1 X101.998 Y60.394 E115.21272
G1 X104.557 Y60.493 E115.55347
G1 X107.100 Y60.795 E115.89422
G1 X109.610 Y61.295 E116.23472
G1 X112.074 Y61.989 E116.57535
G1 X114.477 Y62.874 E116.91606
G1 X116.803 Y63.947 E117.25686
G1 X119.036 Y65.198 E117.59741
G1 X121.164 Y66.621 E117.93803
G1 X123.174 Y68.206 E118.27859
G1 X125.055 Y69.943 E118.61927
G1 X126.792 Y71.824 E118.95995
G1 X128.377 Y73.834 E119.30051
G1 X129.800 Y75.962 E119.64113
G1 X131.051 Y78.195 E119.98168
G1 X132.124 Y80.521 E120.32248
G1 X133.009 Y82.924 E120.66321
G1 X133.705 Y85.388 E121.00389
G1 X134.203 Y87.898 E121.34433
G1 X134.505 Y90.441 E121.68511
G1 X134.606 Y93.006 E122.02662
G1 X134.606 Y128.609 E126.76375
G1 X134.399 Y128.647 E126.79171
G1 X134.082 Y127.810 E126.91070
G1 X133.615 Y127.225 E127.01041
G1 X132.986 Y126.813 E127.11041
G1 X132.264 Y126.613 E127.21010
G1 X131.513 Y126.649 E127.31017
G1 X130.810 Y126.916 E127.41011
G1 X130.225 Y127.383 E127.50981
G1 X129.813 Y128.012 E127.60982
G1 X129.613 Y128.736 E127.70979
G1 X129.649 Y129.485 E127.80957
G1 X129.916 Y130.188 E127.90950
G1 X130.383 Y130.773 E128.00922
G1 X131.012 Y131.185 E128.10921
G1 X131.716 Y131.379 E128.20645
G1 X132.010 Y131.395 E128.24554
G1 X132.496 Y131.345 E128.31055
G1 X133.187 Y131.083 E128.40898
G1 X133.773 Y130.615 E128.50871
G1 X134.185 Y129.987 E128.60867
G1 X134.356 Y129.366 E128.69431
G1 X134.606 Y129.400 E128.72788
G1 X134.606 Y143.606 E130.61808
G1 X69.394 Y143.606 E139.29479
G1 X69.394 Y133.461 E140.64466
G1 X69.555 Y133.422 E140.66672
G1 X70.057 Y134.409 E140.81404
G1 X70.589 Y134.938 E140.91391
G1 X71.257 Y135.282 E141.01373
G1 X71.998 Y135.397 E141.11356
G1 X72.739 Y135.282 E141.21337
G1 X73.409 Y134.938 E141.31349
G1 X73.938 Y134.409 E141.41314
G1 X74.282 Y133.739 E141.51325
G1 X74.397 Y132.998 E141.61305
G1 X74.282 Y132.257 E141.71282
G1 X73.938 Y131.589 E141.81283
G1 X73.409 Y131.057 E141.91257
G1 X72.739 Y130.716 E142.01263
G1 X71.998 Y130.601 E142.11235
G1 X71.257 Y130.716 E142.21213
G1 X70.589 Y131.057 E142.31188
G1 X70.043 Y131.604 E142.41468
G1 X69.939 Y131.871 E142.45288
G1 X69.532 Y132.562 E142.55954
G1 X69.394 Y132.524 E142.57851
G1 X69.394 Y93.006 E147.83662
G1 X69.493 Y90.441 E148.17812
G1 X69.795 Y87.898 E148.51887
G1 X70.295 Y85.388 E148.85938
G1 X70.989 Y82.924 E149.20001
G1 X71.883 Y80.498 E149.54396
G1 X72.947 Y78.195 E149.88153
G1 X74.198 Y75.962 E150.22208
G1 X75.621 Y73.834 E150.56270
G1 X77.133 Y71.917 E150.88753
G1 X77.979 Y71.977 F7800.000
G1 X77.806 Y72.336
G1 X79.500 Y70.500 F540.000 E151.21995
G1 X81.336 Y68.806 E151.55236
G1 X83.297 Y67.259 E151.88473
G1 X85.374 Y65.870 E152.21711
G1 X87.553 Y64.650 E152.54942
G1 X89.823 Y63.603 E152.88195
G1 X92.167 Y62.739 E153.21438
G1 X94.572 Y62.062 E153.54681
G1 X97.022 Y61.574 E153.87913
G1 X99.503 Y61.279 E154.21159
G1 X101.998 Y61.183 E154.54385
G1 X104.495 Y61.279 E154.87637
G1 X106.976 Y61.574 E155.20882
G1 X109.426 Y62.062 E155.54114
G1 X111.831 Y62.739 E155.87357
G1 X114.175 Y63.603 E156.20600
G1 X116.445 Y64.650 E156.53853
G1 X118.624 Y65.870 E156.87085
G1 X120.701 Y67.259 E157.20323
G1 X122.662 Y68.806 E157.53559
G1 X124.498 Y70.500 E157.86801
G1 X126.192 Y72.336 E158.20042
G1 X127.739 Y74.297 E158.53279
G1 X129.127 Y76.374 E158.86517
G1 X130.348 Y78.553 E159.19748
G1 X131.395 Y80.823 E159.53001
G1 X132.259 Y83.167 E159.86250
G1 X132.938 Y85.572 E160.19494
G1 X133.424 Y88.021 E160.52715
G1 X133.719 Y90.503 E160.85974
G1 X133.818 Y93.021 E161.19504
G1 X133.818 Y126.224 E165.61280
G1 X132.352 Y125.820 E165.81510
G1 X131.350 Y125.868 E165.94855
G1 X130.415 Y126.223 E166.08161
G1 X129.635 Y126.846 E166.21447
G1 X129.086 Y127.683 E166.34770
G1 X128.820 Y128.649 E166.48093
G1 X128.868 Y129.648 E166.61402
G1 X129.223 Y130.583 E166.74704
G1 X129.846 Y131.363 E166.87997
G1 X130.683 Y131.912 E167.01315
G1 X131.589 Y132.161 E167.13816
G1 X132.029 Y132.185 E167.19680
G1 X132.679 Y132.118 E167.28375
G1 X133.818 Y131.686 E167.44579
G1 X133.818 Y142.818 E168.92691
G1 X70.182 Y142.818 E177.39393
G1 X70.182 Y135.615 E178.35231
G1 X71.010 Y136.041 E178.47613
G1 X71.998 Y136.194 E178.60921
G1 X72.986 Y136.041 E178.74220
G1 X73.878 Y135.583 E178.87570
G1 X74.583 Y134.878 E179.00832
G1 X75.041 Y133.986 E179.14180
G1 X75.194 Y132.998 E179.27477
G1 X75.041 Y132.011 E179.40766
G1 X74.581 Y131.118 E179.54130
G1 X73.878 Y130.412 E179.67382
G1 X72.984 Y129.957 E179.80736
G1 X71.998 Y129.804 E179.94010
G1 X71.011 Y129.957 E180.07301
G1 X70.182 Y130.381 E180.19688
G1 X70.182 Y93.021 E185.16775
G1 X70.279 Y90.503 E185.50304
G1 X70.574 Y88.022 E185.83550
G1 X71.062 Y85.572 E186.16782
G1 X71.739 Y83.167 E186.50025
G1 X72.603 Y80.823 E186.83268
G1 X73.650 Y78.553 E187.16522
G1 X74.870 Y76.374 E187.49753
G1 X76.259 Y74.297 E187.82991
G1 X77.732 Y72.429 E188.14655
G1 X78.405 Y72.848 F7800.000
G1 X80.058 Y71.058 F540.000 E188.47070
G1 X81.848 Y69.405 E188.79485
G1 X83.761 Y67.897 E189.11902
G1 X85.786 Y66.543 E189.44316
G1 X87.911 Y65.352 E189.76724
G1 X90.124 Y64.332 E190.09150
G1 X92.410 Y63.489 E190.41565
G1 X94.756 Y62.829 E190.73988
G1 X97.145 Y62.353 E191.06402
G1 X99.565 Y62.066 E191.38819
G1 X101.998 Y61.971 E191.71221
G1 X104.433 Y62.066 E192.03650
G1 X106.853 Y62.353 E192.36067
G1 X109.242 Y62.829 E192.68480
G1 X111.588 Y63.489 E193.00903
G1 X113.874 Y64.332 E193.33318
G1 X116.087 Y65.352 E193.65744
G1 X118.212 Y66.543 E193.98152
G1 X120.237 Y67.897 E194.30566
G1 X122.150 Y69.405 E194.62983
G1 X123.940 Y71.058 E194.95398
G1 X125.593 Y72.848 E195.27814
G1 X127.101 Y74.761 E195.60230
G1 X128.455 Y76.786 E195.92644
G1 X129.646 Y78.911 E196.25052
G1 X130.666 Y81.124 E196.57479
G1 X131.509 Y83.411 E196.89903
G1 X132.171 Y85.756 E197.22323
G1 X132.645 Y88.144 E197.54722
G1 X132.933 Y90.565 E197.87160
G1 X133.030 Y93.037 E198.20069
G1 X133.030 Y125.190 E202.47878
G1 X132.440 Y125.027 E202.56017
G1 X131.188 Y125.087 E202.72699
G1 X130.020 Y125.530 E202.89319
G1 X129.045 Y126.309 E203.05920
G1 X128.359 Y127.355 E203.22565
G1 X128.027 Y128.561 E203.39213
G1 X128.087 Y129.810 E203.55853
G1 X128.530 Y130.978 E203.72465
G1 X129.309 Y131.953 E203.89079
G1 X130.354 Y132.639 E204.05715
G1 X131.462 Y132.944 E204.20994
G1 X132.049 Y132.976 E204.28813
G1 X133.030 Y132.874 E204.41942
G1 X133.030 Y142.030 E205.63772
G1 X70.970 Y142.030 E213.89505
G1 X70.970 Y136.832 E214.58667
G1 X71.998 Y136.992 E214.72505
G1 X73.232 Y136.800 E214.89122
G1 X74.348 Y136.228 E215.05811
G1 X75.228 Y135.348 E215.22370
G1 X75.800 Y134.232 E215.39054
G1 X75.992 Y132.998 E215.55669
G1 X75.800 Y131.765 E215.72269
G1 X75.225 Y130.647 E215.88996
G1 X74.348 Y129.767 E216.05525
G1 X73.229 Y129.198 E216.22230
G1 X71.998 Y129.006 E216.38805
G1 X70.970 Y129.166 E216.52650
G1 X70.970 Y93.036 E221.33374
G1 X71.066 Y90.565 E221.66283
G1 X71.353 Y88.145 E221.98700
G1 X71.829 Y85.756 E222.31113
G1 X72.489 Y83.410 E222.63536
G1 X73.332 Y81.124 E222.95951
G1 X74.352 Y78.911 E223.28378
G1 X75.543 Y76.786 E223.60785
G1 X76.897 Y74.761 E223.93199
G1 X78.332 Y72.941 E224.24043
G1 F1800.000 E224.14043
G1 Z0.691 F7800.000
G92 E0
G1 X84.270 Y133.613
G1 Z0.397
G1 F1800.000 E0.10000
G1 X84.728 Y133.613 F540.000 E0.16100
G1 X85.174 Y133.685 E0.22111
G1 X85.392 Y133.747 E0.25130
G1 X85.607 Y133.824 E0.28161
G1 X86.012 Y134.029 E0.34202
G1 X86.378 Y134.298 E0.40244
G1 X86.545 Y134.451 E0.43258
G1 X86.842 Y134.799 E0.49342
G1 X87.077 Y135.184 E0.55353
G1 X87.172 Y135.391 E0.58380
G1 X87.313 Y135.824 E0.64436
G1 X87.385 Y136.272 E0.70472
G1 X87.385 Y136.726 E0.76520
G1 X87.313 Y137.174 E0.82557
G1 X87.251 Y137.394 E0.85601
G1 X87.077 Y137.813 E0.91627
G1 X86.966 Y138.012 E0.94658
G1 X86.700 Y138.378 E1.00685
G1 X86.545 Y138.547 E1.03738
G1 X86.200 Y138.841 E1.09766
G1 X85.813 Y139.077 E1.15805
G1 X85.445 Y139.232 E1.21111
