; generated by Slic3r 1.1.7 on 2015-04-25 at 02:27:59

; perimeters extrusion width = 0.50mm
; infill extrusion width = 0.52mm
; solid infill extrusion width = 0.52mm
; top infill extrusion width = 0.52mm

G21 ; set units to millimeters
M107
M104 S200 ; set temperature
G28 ; home all axes
G1 Z5 F5000 ; lift nozzle

M109 S200 ; wait for temperature to be reached
G90 ; use absolute coordinates
G92 E0
M82 ; use absolute distances for extrusion
G1 F1800.000 E-1.00000
G92 E0
G1 Z0.350 F7800.000
G1 X70.018 Y65.049 F7800.000
G1 E1.00000 F1800.000
G1 X72.147 Y62.777 E1.10130 F1080.000
G1 X74.447 Y60.678 E1.20260
G1 X76.905 Y58.767 E1.30390
G1 X79.505 Y57.054 E1.40520
G1 X82.231 Y55.551 E1.50650
G1 X85.067 Y54.266 E1.60780
G1 X87.392 Y53.408 E1.68841
G1 X87.995 Y53.208 E1.70910
G1 X90.998 Y52.382 E1.81040
G1 X94.055 Y51.795 E1.91170
G1 X97.149 Y51.449 E2.01300
G1 X100.261 Y51.348 E2.11430
G1 X103.372 Y51.490 E2.21560
G1 X106.461 Y51.877 E2.31690 F1080.000
G1 X109.511 Y52.504 E2.41820
G1 X112.502 Y53.369 E2.51950
G1 X115.416 Y54.466 E2.62080
G1 X118.234 Y55.788 E2.72209
G1 X120.941 Y57.327 E2.82339
G1 X123.518 Y59.074 E2.92469
G1 X125.951 Y61.018 E3.02599
G1 X128.223 Y63.146 E3.12729
G1 X129.905 Y64.966 E3.20791
G1 X130.321 Y65.447 E3.22860
G1 X132.233 Y67.904 E3.32990
G1 X133.609 Y69.964 E3.41051
G1 X133.945 Y70.504 E3.43121
G1 X135.449 Y73.231 E3.53251
G1 X136.734 Y76.067 E3.63380
G1 X137.591 Y78.392 E3.71442
G1 X137.792 Y78.995 E3.73511
G1 X138.465 Y81.380 E3.81573
G1 X138.617 Y81.997 E3.83642
G1 X139.101 Y84.427 E3.91704
G1 X139.205 Y85.055 E3.93773
G1 X139.496 Y87.516 E4.01834
G1 X139.550 Y88.149 E4.03904
G1 X139.648 Y90.625 E4.11965
G1 X139.657 Y142.000 E5.79116
G1 X139.260 Y144.265 E5.86596
G1 X138.116 Y146.259 E5.94076
G1 X136.363 Y147.746 E6.01556
G1 X134.208 Y148.547 E6.09036
G1 X133.000 Y148.657 E6.12981
G1 X67.000 Y148.657 E8.27714
G1 X64.735 Y148.260 E8.35194
G1 X62.741 Y147.117 E8.42674
G1 X61.255 Y145.363 E8.50154
G1 X60.453 Y143.208 E8.57634
G1 X60.343 Y142.000 E8.61579
G1 X60.348 Y90.738 E10.28361
G1 X60.491 Y87.628 E10.38491
G1 X60.789 Y85.112 E10.46736
G1 X60.877 Y84.539 E10.48622
G1 X61.505 Y81.489 E10.58752
G1 X62.370 Y78.498 E10.68882
G1 X63.466 Y75.584 E10.79012
G1 X64.789 Y72.765 E10.89142
G1 X66.328 Y70.059 E10.99272
G1 X68.075 Y67.481 E11.09402
G1 X69.971 Y65.108 E11.19288
G1 F1800.000 E10.19288
G92 E0
G1 X118.376 Y106.694 F7800.000
G1 E1.00000 F1800.000
G1 X117.007 Y108.161 E1.06528 F540.000
G1 X115.694 Y109.375 E1.12346
G1 X114.204 Y110.550 E1.18519
G1 X112.626 Y111.604 E1.24693
G1 X110.971 Y112.531 E1.30866
G1 X109.145 Y113.363 E1.37394
G1 X107.468 Y113.982 E1.43212
G1 X105.641 Y114.497 E1.49385
G1 X103.780 Y114.868 E1.55559
G1 X101.896 Y115.091 E1.61732
G1 X99.891 Y115.161 E1.68260
G1 X98.104 Y115.091 E1.74078
G1 X96.220 Y114.868 E1.80251
G1 X94.359 Y114.497 E1.86425
G1 X92.532 Y113.982 E1.92598
G1 X90.752 Y113.326 E1.98772
G1 X89.029 Y112.531 E2.04945
G1 X87.374 Y111.604 E2.11119
G1 X85.796 Y110.550 E2.17292
G1 X84.306 Y109.375 E2.23465
G1 X82.912 Y108.087 E2.29639
G1 X81.624 Y106.694 E2.35812
G1 X80.450 Y105.204 E2.41986
G1 X79.396 Y103.626 E2.48159
G1 X78.522 Y102.066 E2.53977
G1 X77.674 Y100.247 E2.60505
G1 X77.017 Y98.467 E2.66678
G1 X76.502 Y96.641 E2.72852
G1 X76.132 Y94.780 E2.79025
G1 X75.909 Y92.896 E2.85199
G1 X75.835 Y91.000 E2.91372
G1 X75.909 Y89.104 E2.97545
G1 X76.132 Y87.219 E3.03719
G1 X76.502 Y85.358 E3.09892
G1 X77.017 Y83.532 E3.16066
G1 X77.674 Y81.752 E3.22239
G1 X78.468 Y80.029 E3.28413
G1 X79.396 Y78.373 E3.34586
G1 X80.450 Y76.796 E3.40760
G1 X81.624 Y75.305 E3.46933
G1 X82.912 Y73.912 E3.53106
G1 X84.306 Y72.624 E3.59280
G1 X85.796 Y71.449 E3.65453
G1 X87.374 Y70.395 E3.71627
G1 X89.029 Y69.468 E3.77800
G1 X90.752 Y68.674 E3.83974
G1 X92.532 Y68.017 E3.90147
G1 X94.359 Y67.502 E3.96321
G1 X96.220 Y67.132 E4.02494
G1 X98.104 Y66.909 E4.08667
G1 X100.109 Y66.839 E4.15195
G1 X101.896 Y66.909 E4.21013 F540.000
G1 X103.780 Y67.132 E4.27187
G1 X105.641 Y67.502 E4.33360
G1 X107.468 Y68.017 E4.39533
G1 X109.248 Y68.674 E4.45707
G1 X110.971 Y69.468 E4.51880
G1 X112.626 Y70.395 E4.58054
G1 X114.204 Y71.449 E4.64227
G1 X115.694 Y72.624 E4.70401
G1 X117.088 Y73.912 E4.76574
G1 X118.376 Y75.305 E4.82748
G1 X119.550 Y76.796 E4.88921
G1 X120.604 Y78.373 E4.95094
G1 X121.532 Y80.029 E5.01268
G1 X122.326 Y81.752 E5.07441
G1 X122.983 Y83.532 E5.13615
G1 X123.498 Y85.358 E5.19788
G1 X123.868 Y87.219 E5.25962
G1 X124.078 Y88.995 E5.31780
G1 X124.165 Y91.000 E5.38307
G1 X124.091 Y92.896 E5.44481
G1 X123.868 Y94.780 E5.50654
G1 X123.498 Y96.641 E5.56828
G1 X123.012 Y98.362 E5.62646
G1 X122.326 Y100.247 E5.69174
G1 X121.532 Y101.971 E5.75347
G1 X120.604 Y103.626 E5.81520
G1 X119.550 Y105.204 E5.87694
G1 X118.422 Y106.635 E5.93623
G1 X117.876 Y106.267 F7800.000
G1 X116.561 Y107.679 E5.99899 F540.000
G1 X115.267 Y108.875 E6.05633
G1 X113.818 Y110.018 E6.11639
G1 X112.283 Y111.043 E6.17644
G1 X110.672 Y111.945 E6.23650
G1 X108.918 Y112.747 E6.29926
G1 X107.264 Y113.357 E6.35660
G1 X105.488 Y113.858 E6.41665
G1 X103.677 Y114.218 E6.47671
G1 X101.844 Y114.435 E6.53676
G1 X99.917 Y114.504 E6.59952
G1 X98.156 Y114.435 E6.65686
G1 X96.323 Y114.218 E6.71692
G1 X94.512 Y113.858 E6.77697
G1 X92.736 Y113.357 E6.83702
G1 X91.004 Y112.718 E6.89708
G1 X89.328 Y111.945 E6.95713
G1 X87.717 Y111.043 E7.01719
G1 X86.182 Y110.018 E7.07724
G1 X84.733 Y108.875 E7.13730
G1 X83.377 Y107.622 E7.19735
G1 X82.124 Y106.267 E7.25741
G1 X80.982 Y104.817 E7.31746
G1 X79.956 Y103.282 E7.37751
G1 X79.054 Y101.672 E7.43757
G1 X78.282 Y99.996 E7.49762
G1 X77.643 Y98.264 E7.55768
G1 X77.142 Y96.487 E7.61773
G1 X76.782 Y94.677 E7.67779
G1 X76.565 Y92.844 E7.73784
G1 X76.492 Y91.000 E7.79789
G1 X76.565 Y89.155 E7.85795
G1 X76.782 Y87.322 E7.91800
G1 X77.142 Y85.512 E7.97806
G1 X77.643 Y83.735 E8.03811
G1 X78.282 Y82.004 E8.09817
G1 X79.054 Y80.327 E8.15822
G1 X79.956 Y78.717 E8.21828
G1 X80.982 Y77.182 E8.27833
G1 X82.124 Y75.733 E8.33838
G1 X83.377 Y74.377 E8.39844
G1 X84.733 Y73.124 E8.45849
G1 X86.182 Y71.981 E8.51855
G1 X87.717 Y70.956 E8.57860
G1 X89.328 Y70.054 E8.63866
G1 X91.004 Y69.281 E8.69871
G1 X92.736 Y68.642 E8.75877
G1 X94.512 Y68.141 E8.81882
G1 X96.323 Y67.781 E8.87888
G1 X98.239 Y67.561 E8.94164
G1 X100.000 Y67.492 E8.99898 F540.000
G1 X101.844 Y67.564 E9.05903
G1 X103.677 Y67.781 E9.11908
G1 X105.488 Y68.141 E9.17914
G1 X107.264 Y68.642 E9.23919
G1 X108.996 Y69.281 E9.29925
G1 X110.672 Y70.054 E9.35930
G1 X112.283 Y70.956 E9.41936
G1 X113.818 Y71.981 E9.47941
G1 X115.267 Y73.124 E9.53946
G1 X116.623 Y74.377 E9.59952
G1 X117.876 Y75.733 E9.65957
G1 X119.018 Y77.182 E9.71963
G1 X120.044 Y78.717 E9.77968
G1 X120.946 Y80.327 E9.83974
G1 X121.718 Y82.004 E9.89979
G1 X122.357 Y83.735 E9.95985
G1 X122.858 Y85.512 E10.01990
G1 X123.218 Y87.322 E10.07995
G1 X123.435 Y89.155 E10.14001
G1 X123.508 Y91.000 E10.20006
G1 X123.435 Y92.844 E10.26012
G1 X123.218 Y94.677 E10.32017
G1 X122.858 Y96.487 E10.38023
G1 X122.357 Y98.264 E10.44028
G1 X121.718 Y99.996 E10.50034
G1 X120.946 Y101.672 E10.56039
G1 X120.044 Y103.282 E10.62044
G1 X119.018 Y104.817 E10.68050
G1 X117.922 Y106.208 E10.73811
G1 X117.375 Y105.840 F7800.000
G1 X116.115 Y107.196 E10.79836 F378.000
G1 X114.840 Y108.375 E10.85486
G1 X113.431 Y109.486 E10.91323
G1 X111.939 Y110.483 E10.97161
G1 X110.374 Y111.359 E11.02998
G1 X108.690 Y112.130 E11.09022
G1 X107.061 Y112.732 E11.14672
G1 X105.334 Y113.219 E11.20510
G1 X103.575 Y113.569 E11.26347
G1 X101.793 Y113.779 E11.32185
G1 X99.942 Y113.848 E11.38209
G1 X98.207 Y113.779 E11.43859
G1 X96.425 Y113.569 E11.49697
G1 X94.666 Y113.219 E11.55534
G1 X92.939 Y112.732 E11.61371
G1 X91.256 Y112.111 E11.67209
G1 X89.626 Y111.359 E11.73046
G1 X88.061 Y110.483 E11.78884
G1 X86.569 Y109.486 E11.84721
G1 X85.160 Y108.375 E11.90559
G1 X83.842 Y107.157 E11.96396
G1 X82.625 Y105.840 E12.02234
G1 X81.514 Y104.431 E12.08071
G1 X80.517 Y102.939 E12.13908
G1 X79.668 Y101.424 E12.19559
G1 X78.889 Y99.744 E12.25583
G1 X78.268 Y98.061 E12.31420
G1 X77.781 Y96.334 E12.37258
G1 X77.431 Y94.574 E12.43095
G1 X77.220 Y92.792 E12.48933
G1 X77.150 Y91.000 E12.54770
G1 X77.220 Y89.207 E12.60608
G1 X77.431 Y87.425 E12.66445
G1 X77.781 Y85.665 E12.72282
G1 X78.268 Y83.939 E12.78120
G1 X78.889 Y82.255 E12.83957
G1 X79.640 Y80.626 E12.89795
G1 X80.517 Y79.060 E12.95632
G1 X81.514 Y77.569 E13.01470
G1 X82.625 Y76.160 E13.07307
G1 X83.842 Y74.842 E13.13145
G1 X85.160 Y73.624 E13.18982
G1 X86.569 Y72.513 E13.24819
G1 X88.061 Y71.517 E13.30657
G1 X89.626 Y70.640 E13.36494
G1 X91.256 Y69.889 E13.42332
G1 X92.939 Y69.268 E13.48169
G1 X94.666 Y68.781 E13.54007
G1 X96.425 Y68.431 E13.59844
G1 X98.207 Y68.220 E13.65682
G1 X100.058 Y68.152 E13.71706
G1 X101.793 Y68.220 E13.77356 F378.000
G1 X103.575 Y68.431 E13.83193
G1 X105.334 Y68.781 E13.89031
G1 X107.061 Y69.268 E13.94868
G1 X108.744 Y69.889 E14.00706
G1 X110.374 Y70.640 E14.06543
G1 X111.939 Y71.517 E14.12381
G1 X113.431 Y72.513 E14.18218
G1 X114.840 Y73.624 E14.24056
G1 X116.158 Y74.842 E14.29893
G1 X117.375 Y76.160 E14.35730
G1 X118.486 Y77.569 E14.41568
G1 X119.483 Y79.060 E14.47405
G1 X120.360 Y80.626 E14.53243
G1 X121.111 Y82.255 E14.59080
G1 X121.732 Y83.939 E14.64918
G1 X122.219 Y85.665 E14.70755
G1 X122.569 Y87.425 E14.76593
G1 X122.780 Y89.207 E14.82430
G1 X122.850 Y91.000 E14.88268
G1 X122.780 Y92.792 E14.94105
G1 X122.569 Y94.574 E14.99942
G1 X122.219 Y96.334 E15.05780
G1 X121.732 Y98.061 E15.11617
G1 X121.111 Y99.744 E15.17455
G1 X120.360 Y101.373 E15.23292
G1 X119.483 Y102.939 E15.29130
G1 X118.486 Y104.431 E15.34967
G1 X117.422 Y105.781 E15.40561
G1 F1800.000 E14.40561
G92 E0
G1 X99.993 Y67.656 F7800.000
G1 X117.500 Y130.334 F7800.000
G1 E1.00000 F1800.000
G1 X117.727 Y130.343 E1.00740 F540.000
G1 X118.152 Y130.386 E1.02128 F540.000
G1 X118.472 Y130.449 E1.03192
G1 X118.787 Y130.538 E1.04256
G1 X119.094 Y130.651 E1.05320
G1 X119.391 Y130.788 E1.06384
G1 X119.865 Y131.074 E1.08186
G1 X120.205 Y131.332 E1.09574
G1 X120.445 Y131.554 E1.10639
G1 X120.667 Y131.794 E1.11703
G1 X120.870 Y132.051 E1.12767
G1 X121.100 Y132.410 E1.14155
G1 X121.348 Y132.906 E1.15957
G1 X121.462 Y133.212 E1.17021
G1 X121.550 Y133.527 E1.18085
G1 X121.614 Y133.848 E1.19149
G1 X121.653 Y134.173 E1.20213
G1 X121.665 Y134.500 E1.21278
G1 X121.653 Y134.826 E1.22342
G1 X121.614 Y135.151 E1.23406
G1 X121.523 Y135.568 E1.24794
G1 X121.348 Y136.094 E1.26596
G1 X121.211 Y136.391 E1.27660
G1 X120.996 Y136.759 E1.29048
G1 X120.667 Y137.205 E1.30850
G1 X120.445 Y137.445 E1.31915
G1 X120.205 Y137.667 E1.32979
G1 X119.948 Y137.870 E1.34043
G1 X119.676 Y138.051 E1.35107
G1 X119.391 Y138.211 E1.36171
G1 X119.094 Y138.348 E1.37235
G1 X118.568 Y138.523 E1.39038
G1 X118.152 Y138.614 E1.40426
G1 X117.827 Y138.652 E1.41490
G1 X117.500 Y138.665 E1.42554
G1 X116.947 Y138.626 E1.44356
G1 X116.528 Y138.550 E1.45744
G1 X115.060 Y138.136 E1.50705
G1 X115.060 Y137.876 E1.51551
G1 X114.795 Y137.667 E1.52650
G1 X114.555 Y137.445 E1.53714
G1 X114.333 Y137.205 E1.54778
G1 X114.130 Y136.948 E1.55842
G1 X113.948 Y136.676 E1.56906
G1 X113.789 Y136.391 E1.57970
G1 X113.652 Y136.094 E1.59035
G1 X113.538 Y135.787 E1.60099
G1 X113.450 Y135.472 E1.61163
G1 X113.386 Y135.151 E1.62227
G1 X113.347 Y134.826 E1.63291
G1 X113.335 Y134.500 E1.64355
G1 X113.347 Y134.173 E1.65419
G1 X113.386 Y133.848 E1.66483
G1 X113.450 Y133.527 E1.67548
G1 X113.538 Y133.212 E1.68612
G1 X113.652 Y132.906 E1.69676
G1 X113.789 Y132.609 E1.70740
G1 X113.948 Y132.323 E1.71804
G1 X114.130 Y132.051 E1.72868
G1 X114.333 Y131.794 E1.73932
G1 X114.555 Y131.554 E1.74996
G1 X114.795 Y131.332 E1.76060
G1 X115.052 Y131.130 E1.77125
G1 X115.324 Y130.948 E1.78189
G1 X115.609 Y130.788 E1.79253
G1 X115.906 Y130.651 E1.80317
G1 X116.213 Y130.538 E1.81381
G1 X116.528 Y130.449 E1.82445
G1 X116.848 Y130.386 E1.83509
G1 X117.425 Y130.337 E1.85392
G1 X117.500 Y130.992 F7800.000
G1 X117.775 Y131.003 E1.86288 F540.000
G1 X118.319 Y131.089 E1.88079
G1 X118.842 Y131.259 E1.89870
G1 X119.093 Y131.374 E1.90766
G1 X119.500 Y131.621 E1.92317
G1 X119.778 Y131.832 E1.93453
G1 X119.980 Y132.019 E1.94349
G1 X120.338 Y132.438 E1.96140
G1 X120.527 Y132.731 E1.97276
G1 X120.741 Y133.157 E1.98827
G1 X120.911 Y133.681 E2.00617
G1 X120.965 Y133.951 E2.01513
G1 X121.000 Y134.298 E2.02650
G1 X120.997 Y134.775 E2.04200
G1 X120.965 Y135.048 E2.05096
G1 X120.836 Y135.584 E2.06887
G1 X120.626 Y136.092 E2.08678
G1 X120.450 Y136.394 E2.09814
G1 X120.167 Y136.778 E2.11365
G1 X119.778 Y137.167 E2.13156
G1 X119.562 Y137.338 E2.14052
G1 X119.093 Y137.625 E2.15843
G1 X118.842 Y137.741 E2.16739
G1 X118.390 Y137.891 E2.18289
G1 X118.049 Y137.964 E2.19425
G1 X117.775 Y137.997 E2.20322
G1 X117.299 Y138.000 E2.21872
G1 X116.951 Y137.964 E2.23008
G1 X116.681 Y137.911 E2.23904
G1 X115.717 Y137.639 E2.27163
G1 X115.717 Y137.524 E2.27537
G1 X115.438 Y137.338 E2.28628
G1 X115.020 Y136.980 E2.30419
G1 X114.662 Y136.562 E2.32210
G1 X114.509 Y136.333 E2.33106
G1 X114.259 Y135.842 E2.34897
G1 X114.164 Y135.584 E2.35793
G1 X114.035 Y135.048 E2.37584
G1 X114.003 Y134.775 E2.38480
G1 X114.003 Y134.224 E2.40271
G1 X114.035 Y133.951 E2.41167
G1 X114.164 Y133.416 E2.42958
G1 X114.259 Y133.157 E2.43854
G1 X114.509 Y132.667 E2.45645
G1 X114.833 Y132.221 E2.47436
G1 X115.222 Y131.832 E2.49227
G1 X115.438 Y131.662 E2.50123
G1 X115.907 Y131.374 E2.51914
G1 X116.158 Y131.259 E2.52810
G1 X116.681 Y131.089 E2.54601
G1 X116.951 Y131.035 E2.55497
G1 X117.425 Y130.995 E2.57044
G1 X117.500 Y131.649 F7800.000
G1 X117.676 Y131.656 E2.57616 F378.000
G1 X118.165 Y131.728 E2.59226 F378.000
G1 X118.591 Y131.866 E2.60681
G1 X118.794 Y131.960 E2.61410
G1 X119.175 Y132.194 E2.62865
G1 X119.515 Y132.484 E2.64320
G1 X119.806 Y132.824 E2.65775
G1 X119.930 Y133.010 E2.66503
G1 X120.133 Y133.409 E2.67958
G1 X120.272 Y133.834 E2.69414
G1 X120.315 Y134.054 E2.70142
G1 X120.350 Y134.500 E2.71597
G1 X120.315 Y134.946 E2.73052
G1 X120.258 Y135.211 E2.73936
G1 X120.133 Y135.590 E2.75235
G1 X119.904 Y136.029 E2.76846
G1 X119.667 Y136.351 E2.78145
G1 X119.515 Y136.515 E2.78873
G1 X119.175 Y136.806 E2.80328
G1 X118.794 Y137.039 E2.81783
G1 X118.591 Y137.133 E2.82511
G1 X118.212 Y137.258 E2.83810
G1 X117.946 Y137.315 E2.84694
G1 X117.500 Y137.350 E2.86149
G1 X117.054 Y137.315 E2.87605
G1 X116.374 Y137.141 E2.89888
G1 X116.374 Y137.117 E2.89968
G1 X116.011 Y136.930 E2.91297
G1 X115.825 Y136.806 E2.92025
G1 X115.485 Y136.515 E2.93480
G1 X115.194 Y136.175 E2.94936
G1 X115.046 Y135.947 E2.95820
G1 X114.867 Y135.590 E2.97119
G1 X114.789 Y135.380 E2.97847
G1 X114.685 Y134.946 E2.99302
G1 X114.650 Y134.500 E3.00757
G1 X114.685 Y134.054 E3.02212
G1 X114.728 Y133.834 E3.02941
G1 X114.867 Y133.409 E3.04396
G1 X115.070 Y133.010 E3.05851
G1 X115.194 Y132.824 E3.06579
G1 X115.485 Y132.484 E3.08034
G1 X115.825 Y132.194 E3.09489
G1 X116.206 Y131.960 E3.10944
G1 X116.409 Y131.866 E3.11673
G1 X116.835 Y131.728 E3.13128
G1 X117.054 Y131.684 E3.13856
G1 X117.425 Y131.652 E3.15067
G1 X117.957 Y131.249 F7800.000
G1 X106.354 Y128.506 F7800.000
G1 X106.158 Y129.050 E3.16950 F540.000
G1 X105.939 Y129.526 E3.18653
G1 X105.683 Y129.982 E3.20356
G1 X105.392 Y130.417 E3.22059
G1 X105.068 Y130.829 E3.23762
G1 X104.713 Y131.213 E3.25464
G1 X104.329 Y131.568 E3.27167
G1 X103.918 Y131.892 E3.28870
G1 X103.483 Y132.183 E3.30573
G1 X103.026 Y132.439 E3.32276
G1 X102.626 Y132.623 E3.33710
G1 X102.060 Y132.839 E3.35680
G1 X101.556 Y132.981 E3.37383
G1 X101.043 Y133.083 E3.39086
G1 X100.523 Y133.145 E3.40789
G1 X100.000 Y133.165 E3.42492
G1 X99.477 Y133.145 E3.44195
G1 X99.039 Y133.093 E3.45629
G1 X98.444 Y132.981 E3.47599
G1 X97.940 Y132.839 E3.49302
G1 X97.449 Y132.658 E3.51005
G1 X96.974 Y132.439 E3.52707
G1 X96.589 Y132.223 E3.54142
G1 X96.082 Y131.892 E3.56112
G1 X95.671 Y131.568 E3.57815
G1 X95.287 Y131.213 E3.59518
G1 X94.932 Y130.829 E3.61221
G1 X94.608 Y130.417 E3.62924
G1 X94.317 Y129.982 E3.64626
G1 X94.061 Y129.526 E3.66329
G1 X93.842 Y129.050 E3.68032
G1 X93.661 Y128.559 E3.69735
G1 X93.519 Y128.056 E3.71438
G1 X93.417 Y127.542 E3.73140
G1 X93.355 Y127.023 E3.74843
